;FLAVOR:Marlin
;TIME:8264
;Filament used: 10.102m
;Layer height: 0.28
;MINX:50.6
;MINY:76.6
;MINZ:0.28
;MAXX:159.6
;MAXY:133.6
;MAXZ:70.075
;TARGET_MACHINE.NAME:Anycubic i3 Mega S/Pro
;Generated with Cura_SteamEngine 5.6.0
M82 ;absolute extrusion mode
;Profil Homepage: https://github.com/NilsRo/Cura_Anycubic_MegaS_Profile

;Slicer Information - (Support for OctoPrint Slicer Estimator)
;Slicer info:material_guid;0ff92885-617b-4144-a03c-9989872454bc
;Slicer info:material_id;generic_pla_175
;Slicer info:material_brand;Generic
;Slicer info:material_name;PLA
;Slicer info:filament_cost;[0.0]
;Slicer info:material_bed_temperature;60
;Slicer info:material_bed_temperature_layer_0;60
;Slicer info:material_print_temperature;195.0
;Slicer info:material_print_temperature_layer_0;200.0
;Slicer info:material_flow;100
;Slicer info:layer_height;0.28
;Slicer info:machine_nozzle_size;0.4
;Slicer info:wall_thickness;1.2000000000000002
;Slicer info:speed_print;50.0
;Slicer info:speed_topbottom;35.0
;Slicer info:travel_speed;100.0
;Slicer info:support;0
;Slicer info:retraction_speed;30
;Slicer info:retraction_amount;6
;Slicer info:layer_height;0.28
;Slicer info:infill_pattern;grid
;Slicer info:infill_sparse_density;15
;Slicer info:cool_fan_enabled;True
;Slicer info:cool_fan_speed;60.0
;Slicer info:sliced_at;Sun 10-03-2024 08:42:21
G21                                        ; metric values 
G90                                        ; absolute positioning 
M82                                        ; set extruder to absolute mode 
M900 K0                                    ; disable lin. adv. if not set in GCODE
M107                                       ; start with the fan off 
M140 S60   ; Start heating the bed 
G4 S60                                     ; wait 1 minute 
M104 S200.0 ; start heating the hot end 
M190 S60   ; wait for bed 
M109 S200.0 ; wait for hotend 
M300 S1000 P500                            ; BEEP heating done 
G28 X0 Y10 Z0                              ; move X/Y to min endstops 
M420 S1                                    ; Enable leveling 
M420 Z2.0                                  ; Set leveling fading height to 2 mm 
G0 Z0.15                                   ; lift nozzle a bit 
G92 E0                                     ; zero the extruded length 
G1 X50 E20 F500                            ; Extrude 20mm of filament in a 5cm line. 
G92 E0                                     ; zero the extruded length again 
G1 E-2 F500                                ; Retract a little 
G1 X50 F500                                ; wipe away from the filament line
G1 X100 F9000                              ; Quickly wipe away from the filament line
G92 E0
G92 E0
G1 F1800 E-6
;LAYER_COUNT:250
;LAYER:0
M106 S76.5
M204 S3000
M205 X10 Y10
G1 F480 Z0.355
G0 F6000 X53.441 Y77.516 Z0.355
M204 S1500
M205 X8 Y8
;TYPE:SKIRT
G1 F480 Z0.28
G1 F1800 E0
G1 F1200 X54.094 Y77.162 E0.03632
G1 X54.693 Y76.924 E0.06783
G1 X55.525 Y76.709 E0.10984
G1 X56.474 Y76.604 E0.15653
G1 X152.905 Y76.6 E4.87127
G1 X153.725 Y76.613 E4.91137
G1 X154.368 Y76.662 E4.9429
G1 X155.197 Y76.83 E4.98425
G1 X155.897 Y77.072 E5.02046
G1 X156.478 Y77.351 E5.05198
G1 X157.148 Y77.779 E5.09085
G1 X157.754 Y78.29 E5.1296
G1 X158.194 Y78.762 E5.16115
G1 X158.661 Y79.402 E5.19989
G1 X159.019 Y80.054 E5.23626
G1 X159.278 Y80.698 E5.27019
G1 X159.492 Y81.53 E5.3122
G1 X159.596 Y82.476 E5.35873
G1 X159.6 Y126.938 E7.53258
G1 X159.589 Y127.715 E7.57057
G1 X159.541 Y128.358 E7.6021
G1 X159.387 Y129.136 E7.64088
G1 X159.132 Y129.889 E7.67974
G1 X158.807 Y130.555 E7.71598
G1 X158.459 Y131.098 E7.74751
G1 X157.987 Y131.672 E7.78384
G1 X157.371 Y132.249 E7.82511
G1 X156.849 Y132.628 E7.85665
G1 X156.11 Y133.035 E7.8979
G1 X155.465 Y133.289 E7.93179
G1 X154.681 Y133.49 E7.97136
G1 X153.726 Y133.596 E8.01834
G1 X57.229 Y133.6 E12.73631
G1 X56.482 Y133.589 E12.77284
G1 X55.839 Y133.54 E12.80437
G1 X55.061 Y133.386 E12.84314
G1 X54.31 Y133.132 E12.88191
G1 X53.729 Y132.854 E12.9134
G1 X53.018 Y132.396 E12.95475
G1 X52.487 Y131.949 E12.98868
G1 X51.949 Y131.369 E13.02736
G1 X51.57 Y130.847 E13.0589
G1 X51.163 Y130.109 E13.10011
G1 X50.925 Y129.51 E13.13162
G1 X50.71 Y128.678 E13.17364
G1 X50.604 Y127.72 E13.22076
G1 X50.6 Y83.193 E15.39779
G1 X50.611 Y82.479 E15.43271
G1 X50.66 Y81.836 E15.46423
G1 X50.815 Y81.058 E15.50302
G1 X51.069 Y80.307 E15.54178
G1 X51.348 Y79.726 E15.57329
G1 X51.805 Y79.015 E15.61462
G1 X52.218 Y78.521 E15.6461
G1 X52.796 Y77.979 E15.68484
G1 X53.441 Y77.516 E15.72366
M204 S3000
M205 X10 Y10
G0 F6000 X53.633 Y77.867
M204 S1500
M205 X8 Y8
G1 F1200 X54.242 Y77.534 E15.7576
G1 X54.841 Y77.296 E15.78911
G1 X55.569 Y77.107 E15.82588
G1 X56.518 Y77.002 E15.87256
G1 X152.899 Y77 E20.58486
G1 X153.695 Y77.012 E20.62379
G1 X154.338 Y77.061 E20.65531
G1 X155.068 Y77.209 E20.69173
G1 X155.724 Y77.433 E20.72562
G1 X156.305 Y77.712 E20.75714
G1 X156.931 Y78.115 E20.79354
G1 X157.461 Y78.563 E20.82747
G1 X157.901 Y79.035 E20.85902
G1 X158.31 Y79.595 E20.89292
G1 X158.668 Y80.247 E20.92929
G1 X158.906 Y80.846 E20.9608
G1 X159.094 Y81.574 E20.99756
G1 X159.198 Y82.52 E21.04409
G1 X159.2 Y126.933 E23.21555
G1 X159.19 Y127.685 E23.25232
G1 X159.142 Y128.328 E23.28385
G1 X159.008 Y129.009 E23.31778
G1 X158.772 Y129.715 E23.35418
G1 X158.47 Y130.339 E23.38807
G1 X158.122 Y130.882 E23.4196
G1 X157.679 Y131.417 E23.45356
G1 X157.136 Y131.925 E23.48992
G1 X156.614 Y132.304 E23.52146
G1 X155.963 Y132.663 E23.55781
G1 X155.318 Y132.917 E23.5917
G1 X154.637 Y133.092 E23.62608
G1 X153.682 Y133.198 E23.67306
G1 X57.235 Y133.2 E28.38858
G1 X56.512 Y133.19 E28.42393
G1 X55.869 Y133.141 E28.45546
G1 X55.188 Y133.007 E28.4894
G1 X54.483 Y132.771 E28.52575
G1 X53.902 Y132.493 E28.55724
G1 X53.276 Y132.09 E28.59364
G1 X52.745 Y131.643 E28.62757
G1 X52.273 Y131.134 E28.66151
G1 X51.894 Y130.612 E28.69305
G1 X51.535 Y129.961 E28.7294
G1 X51.297 Y129.362 E28.76091
G1 X51.108 Y128.634 E28.79769
G1 X51.002 Y127.676 E28.84481
G1 X51 Y83.199 E31.0194
G1 X51.01 Y82.509 E31.05314
G1 X51.059 Y81.866 E31.08467
G1 X51.194 Y81.185 E31.11861
G1 X51.43 Y80.48 E31.15496
G1 X51.709 Y79.899 E31.18647
G1 X52.112 Y79.272 E31.22291
G1 X52.525 Y78.778 E31.2544
G1 X53.03 Y78.303 E31.28829
G1 X53.633 Y77.867 E31.32467
M204 S3000
M205 X10 Y10
G0 F6000 X53.826 Y78.217
M204 S1500
M205 X8 Y8
G1 F1200 X54.39 Y77.906 E31.35616
G1 X54.989 Y77.668 E31.38768
G1 X55.613 Y77.505 E31.41921
G1 X56.562 Y77.4 E31.46589
G1 X152.893 Y77.4 E36.17575
G1 X153.665 Y77.411 E36.21349
G1 X154.308 Y77.46 E36.24502
G1 X154.94 Y77.588 E36.27655
G1 X155.551 Y77.794 E36.30808
G1 X156.132 Y78.073 E36.33959
G1 X156.674 Y78.422 E36.37111
G1 X157.168 Y78.836 E36.40262
G1 X157.608 Y79.308 E36.43417
G1 X157.986 Y79.83 E36.46568
G1 X158.296 Y80.395 E36.49719
G1 X158.534 Y80.994 E36.5287
G1 X158.696 Y81.618 E36.56022
G1 X158.8 Y82.564 E36.60675
G1 X158.8 Y126.928 E38.77582
G1 X158.791 Y127.655 E38.81136
G1 X158.743 Y128.298 E38.84289
G1 X158.616 Y128.93 E38.87441
G1 X158.411 Y129.542 E38.90596
G1 X158.133 Y130.123 E38.93745
G1 X157.785 Y130.666 E38.96899
G1 X157.372 Y131.161 E39.00051
G1 X156.901 Y131.601 E39.03202
G1 X156.379 Y131.98 E39.06356
G1 X155.815 Y132.291 E39.09505
G1 X155.216 Y132.53 E39.12658
G1 X154.593 Y132.694 E39.15808
G1 X153.638 Y132.8 E39.20506
G1 X57.24 Y132.8 E43.91819
G1 X56.542 Y132.791 E43.95232
G1 X55.899 Y132.742 E43.98384
G1 X55.267 Y132.615 E44.01536
G1 X54.656 Y132.41 E44.04687
G1 X54.075 Y132.132 E44.07836
G1 X53.532 Y131.783 E44.10992
G1 X53.037 Y131.37 E44.14144
G1 X52.597 Y130.899 E44.17295
G1 X52.218 Y130.377 E44.20449
G1 X51.907 Y129.813 E44.23598
G1 X51.669 Y129.214 E44.2675
G1 X51.506 Y128.59 E44.29903
G1 X51.4 Y127.632 E44.34616
G1 X51.4 Y83.204 E46.51835
G1 X51.409 Y82.539 E46.55086
G1 X51.458 Y81.896 E46.58239
G1 X51.586 Y81.264 E46.61392
G1 X51.791 Y80.653 E46.64543
G1 X52.07 Y80.072 E46.67694
G1 X52.419 Y79.529 E46.7085
G1 X52.832 Y79.035 E46.73998
G1 X53.303 Y78.595 E46.7715
G1 X53.826 Y78.217 E46.80305
M204 S3000
M205 X10 Y10
G1 F1800 E40.80305
G1 F480 Z0.355
;MESH:cards.stl
G0 F6000 X153.4 Y127.4 Z0.355
M204 S1500
M205 X8 Y8
;TYPE:WALL-OUTER
G1 F480 Z0.28
G1 F1800 E46.80305
G1 F1200 X153.4 Y82.8 E48.98365
G1 X56.8 Y82.8 E53.70665
G1 X56.8 Y127.4 E55.88725
G1 X153.4 Y127.4 E60.61026
M204 S3000
M205 X10 Y10
G0 F6000 X153.4 Y127.2
G0 X153 Y127
M204 S1500
M205 X8 Y8
;TYPE:WALL-INNER
G1 F1200 X153 Y83.2 E62.75175
G1 X57.2 Y83.2 E67.43564
G1 X57.2 Y127 E69.57713
G1 X153 Y127 E74.26102
M204 S3000
M205 X10 Y10
G0 F6000 X152.6 Y126.6
M204 S1500
M205 X8 Y8
G1 F1200 X152.6 Y83.6 E76.36339
G1 X57.6 Y83.6 E81.00817
G1 X57.6 Y126.6 E83.11054
G1 X152.6 Y126.6 E87.75532
M204 S3000
M205 X10 Y10
G0 F6000 X152.22 Y126.22
M204 S1500
M205 X8 Y8
;TYPE:SKIN
G1 F1200 X152.22 Y83.98 E89.82053
G1 X57.98 Y83.98 E94.42815
G1 X57.98 Y126.22 E96.49337
G1 X152.22 Y126.22 E101.10099
M204 S3000
M205 X10 Y10
G1 F1800 E95.10099
G1 F480 Z0.355
G0 F6000 X152.019 Y84.702 Z0.355
M204 S1500
M205 X8 Y8
G1 F480 Z0.28
G1 F1800 E101.10099
G1 F1200 X151.496 Y84.179 E101.13715
M204 S3000
M205 X10 Y10
G0 F6000 X150.93 Y84.179
M204 S1500
M205 X8 Y8
G1 F1200 X152.019 Y85.268 E101.21245
M204 S3000
M205 X10 Y10
G0 F6000 X152.019 Y85.834
M204 S1500
M205 X8 Y8
G1 F1200 X150.364 Y84.179 E101.32688
M204 S3000
M205 X10 Y10
G0 F6000 X149.799 Y84.179
M204 S1500
M205 X8 Y8
G1 F1200 X152.019 Y86.399 E101.48038
M204 S3000
M205 X10 Y10
G0 F6000 X152.019 Y86.965
M204 S1500
M205 X8 Y8
G1 F1200 X149.233 Y84.179 E101.67302
M204 S3000
M205 X10 Y10
G0 F6000 X148.667 Y84.179
M204 S1500
M205 X8 Y8
G1 F1200 X152.019 Y87.531 E101.90479
M204 S3000
M205 X10 Y10
G0 F6000 X152.019 Y88.097
M204 S1500
M205 X8 Y8
G1 F1200 X148.102 Y84.179 E102.17566
M204 S3000
M205 X10 Y10
G0 F6000 X147.536 Y84.179
M204 S1500
M205 X8 Y8
G1 F1200 X152.019 Y88.662 E102.48564
M204 S3000
M205 X10 Y10
G0 F6000 X152.019 Y89.228
M204 S1500
M205 X8 Y8
G1 F1200 X146.97 Y84.179 E102.83475
M204 S3000
M205 X10 Y10
G0 F6000 X146.405 Y84.179
M204 S1500
M205 X8 Y8
G1 F1200 X152.019 Y89.794 E103.22296
M204 S3000
M205 X10 Y10
G0 F6000 X152.019 Y90.359
M204 S1500
M205 X8 Y8
G1 F1200 X145.839 Y84.179 E103.65027
M204 S3000
M205 X10 Y10
G0 F6000 X145.273 Y84.179
M204 S1500
M205 X8 Y8
G1 F1200 X152.019 Y90.925 E104.11672
M204 S3000
M205 X10 Y10
G0 F6000 X152.019 Y91.491
M204 S1500
M205 X8 Y8
G1 F1200 X144.707 Y84.179 E104.6223
M204 S3000
M205 X10 Y10
G0 F6000 X144.142 Y84.179
M204 S1500
M205 X8 Y8
G1 F1200 X152.019 Y92.056 E105.16695
M204 S3000
M205 X10 Y10
G0 F6000 X152.019 Y92.622
M204 S1500
M205 X8 Y8
G1 F1200 X143.576 Y84.179 E105.75073
M204 S3000
M205 X10 Y10
G0 F6000 X143.01 Y84.179
M204 S1500
M205 X8 Y8
G1 F1200 X152.019 Y93.188 E106.37366
M204 S3000
M205 X10 Y10
G0 F6000 X152.019 Y93.753
M204 S1500
M205 X8 Y8
G1 F1200 X142.445 Y84.179 E107.03564
M204 S3000
M205 X10 Y10
G0 F6000 X141.879 Y84.179
M204 S1500
M205 X8 Y8
G1 F1200 X152.019 Y94.319 E107.73677
M204 S3000
M205 X10 Y10
G0 F6000 X152.019 Y94.885
M204 S1500
M205 X8 Y8
G1 F1200 X141.313 Y84.179 E108.47702
M204 S3000
M205 X10 Y10
G0 F6000 X140.748 Y84.179
M204 S1500
M205 X8 Y8
G1 F1200 X152.019 Y95.45 E109.25635
M204 S3000
M205 X10 Y10
G0 F6000 X152.019 Y96.016
M204 S1500
M205 X8 Y8
G1 F1200 X140.182 Y84.179 E110.07481
M204 S3000
M205 X10 Y10
G0 F6000 X139.616 Y84.179
M204 S1500
M205 X8 Y8
G1 F1200 X152.019 Y96.582 E110.93241
M204 S3000
M205 X10 Y10
G0 F6000 X152.019 Y97.147
M204 S1500
M205 X8 Y8
G1 F1200 X139.051 Y84.179 E111.82907
M204 S3000
M205 X10 Y10
G0 F6000 X138.485 Y84.179
M204 S1500
M205 X8 Y8
G1 F1200 X152.019 Y97.713 E112.76487
M204 S3000
M205 X10 Y10
G0 F6000 X152.019 Y98.279
M204 S1500
M205 X8 Y8
G1 F1200 X137.919 Y84.179 E113.7398
M204 S3000
M205 X10 Y10
G0 F6000 X137.354 Y84.179
M204 S1500
M205 X8 Y8
G1 F1200 X152.019 Y98.845 E114.75384
M204 S3000
M205 X10 Y10
G0 F6000 X152.019 Y99.41
M204 S1500
M205 X8 Y8
G1 F1200 X136.788 Y84.179 E115.80698
M204 S3000
M205 X10 Y10
G0 F6000 X136.222 Y84.179
M204 S1500
M205 X8 Y8
G1 F1200 X152.019 Y99.976 E116.89925
M204 S3000
M205 X10 Y10
G0 F6000 X152.019 Y100.542
M204 S1500
M205 X8 Y8
G1 F1200 X135.657 Y84.179 E118.03062
M204 S3000
M205 X10 Y10
G0 F6000 X135.091 Y84.179
M204 S1500
M205 X8 Y8
G1 F1200 X152.019 Y101.107 E119.2011
M204 S3000
M205 X10 Y10
G0 F6000 X152.019 Y101.673
M204 S1500
M205 X8 Y8
G1 F1200 X134.525 Y84.179 E120.41071
M204 S3000
M205 X10 Y10
G0 F6000 X133.959 Y84.179
M204 S1500
M205 X8 Y8
G1 F1200 X152.019 Y102.239 E121.65945
M204 S3000
M205 X10 Y10
G0 F6000 X152.019 Y102.804
M204 S1500
M205 X8 Y8
G1 F1200 X133.394 Y84.179 E122.94727
M204 S3000
M205 X10 Y10
G0 F6000 X132.828 Y84.179
M204 S1500
M205 X8 Y8
G1 F1200 X152.019 Y103.37 E124.27421
M204 S3000
M205 X10 Y10
G0 F6000 X152.019 Y103.936
M204 S1500
M205 X8 Y8
G1 F1200 X132.262 Y84.179 E125.6403
M204 S3000
M205 X10 Y10
G0 F6000 X131.697 Y84.179
M204 S1500
M205 X8 Y8
G1 F1200 X152.019 Y104.501 E127.04545
M204 S3000
M205 X10 Y10
G0 F6000 X152.019 Y105.067
M204 S1500
M205 X8 Y8
G1 F1200 X131.131 Y84.179 E128.48973
M204 S3000
M205 X10 Y10
G0 F6000 X130.565 Y84.179
M204 S1500
M205 X8 Y8
G1 F1200 X152.019 Y105.633 E129.97316
M204 S3000
M205 X10 Y10
G0 F6000 X152.019 Y106.198
M204 S1500
M205 X8 Y8
G1 F1200 X130 Y84.179 E131.49564
M204 S3000
M205 X10 Y10
G0 F6000 X129.434 Y84.179
M204 S1500
M205 X8 Y8
G1 F1200 X152.019 Y106.764 E133.05727
M204 S3000
M205 X10 Y10
G0 F6000 X152.019 Y107.33
M204 S1500
M205 X8 Y8
G1 F1200 X128.868 Y84.179 E134.65803
M204 S3000
M205 X10 Y10
G0 F6000 X128.303 Y84.179
M204 S1500
M205 X8 Y8
G1 F1200 X152.019 Y107.896 E136.29789
M204 S3000
M205 X10 Y10
G0 F6000 X152.019 Y108.461
M204 S1500
M205 X8 Y8
G1 F1200 X127.737 Y84.179 E137.97685
M204 S3000
M205 X10 Y10
G0 F6000 X127.171 Y84.179
M204 S1500
M205 X8 Y8
G1 F1200 X152.019 Y109.027 E139.69495
M204 S3000
M205 X10 Y10
G0 F6000 X152.019 Y109.593
M204 S1500
M205 X8 Y8
G1 F1200 X126.606 Y84.179 E141.45215
M204 S3000
M205 X10 Y10
G0 F6000 X126.04 Y84.179
M204 S1500
M205 X8 Y8
G1 F1200 X152.019 Y110.158 E143.24845
M204 S3000
M205 X10 Y10
G0 F6000 X152.019 Y110.724
M204 S1500
M205 X8 Y8
G1 F1200 X125.474 Y84.179 E145.08388
M204 S3000
M205 X10 Y10
G0 F6000 X124.908 Y84.179
M204 S1500
M205 X8 Y8
G1 F1200 X152.019 Y111.29 E146.95845
M204 S3000
M205 X10 Y10
G0 F6000 X152.019 Y111.855
M204 S1500
M205 X8 Y8
G1 F1200 X124.343 Y84.179 E148.87209
M204 S3000
M205 X10 Y10
G0 F6000 X123.777 Y84.179
M204 S1500
M205 X8 Y8
G1 F1200 X152.019 Y112.421 E150.82486
M204 S3000
M205 X10 Y10
G0 F6000 X152.019 Y112.987
M204 S1500
M205 X8 Y8
G1 F1200 X123.211 Y84.179 E152.81677
M204 S3000
M205 X10 Y10
G0 F6000 X122.646 Y84.179
M204 S1500
M205 X8 Y8
G1 F1200 X152.019 Y113.552 E154.84775
M204 S3000
M205 X10 Y10
G0 F6000 X152.019 Y114.118
M204 S1500
M205 X8 Y8
G1 F1200 X122.08 Y84.179 E156.91786
M204 S3000
M205 X10 Y10
G0 F6000 X121.514 Y84.179
M204 S1500
M205 X8 Y8
G1 F1200 X152.019 Y114.684 E159.0271
M204 S3000
M205 X10 Y10
G0 F6000 X152.019 Y115.249
M204 S1500
M205 X8 Y8
G1 F1200 X120.949 Y84.179 E161.17542
M204 S3000
M205 X10 Y10
G0 F6000 X120.383 Y84.179
M204 S1500
M205 X8 Y8
G1 F1200 X152.019 Y115.815 E163.36287
M204 S3000
M205 X10 Y10
G0 F6000 X152.019 Y116.381
M204 S1500
M205 X8 Y8
G1 F1200 X119.817 Y84.179 E165.58945
M204 S3000
M205 X10 Y10
G0 F6000 X119.252 Y84.179
M204 S1500
M205 X8 Y8
G1 F1200 X152.019 Y116.946 E167.8551
M204 S3000
M205 X10 Y10
G0 F6000 X152.019 Y117.512
M204 S1500
M205 X8 Y8
G1 F1200 X118.686 Y84.179 E170.15989
M204 S3000
M205 X10 Y10
G0 F6000 X118.12 Y84.179
M204 S1500
M205 X8 Y8
G1 F1200 X152.019 Y118.078 E172.50381
M204 S3000
M205 X10 Y10
G0 F6000 X152.019 Y118.644
M204 S1500
M205 X8 Y8
G1 F1200 X117.555 Y84.179 E174.88683
M204 S3000
M205 X10 Y10
G0 F6000 X116.989 Y84.179
M204 S1500
M205 X8 Y8
G1 F1200 X152.019 Y119.209 E177.30896
M204 S3000
M205 X10 Y10
G0 F6000 X152.019 Y119.775
M204 S1500
M205 X8 Y8
G1 F1200 X116.423 Y84.179 E179.77022
M204 S3000
M205 X10 Y10
G0 F6000 X115.858 Y84.179
M204 S1500
M205 X8 Y8
G1 F1200 X152.019 Y120.341 E182.27058
M204 S3000
M205 X10 Y10
G0 F6000 X152.019 Y120.906
M204 S1500
M205 X8 Y8
G1 F1200 X115.292 Y84.179 E184.81004
