;FLAVOR:Marlin
;TIME:519
;Filament used: 0.537228m
;Layer height: 0.28
;MINX:80.7
;MINY:80.7
;MINZ:0.28
;MAXX:129.5
;MAXY:129.5
;MAXZ:4.4
;TARGET_MACHINE.NAME:Anycubic i3 Mega S/Pro
;Generated with Cura_SteamEngine 5.6.0
M82 ;absolute extrusion mode
;Profil Homepage: https://github.com/NilsRo/Cura_Anycubic_MegaS_Profile

;Slicer Information - (Support for OctoPrint Slicer Estimator)
;Slicer info:material_guid;0ff92885-617b-4144-a03c-9989872454bc
;Slicer info:material_id;generic_pla_175
;Slicer info:material_brand;Generic
;Slicer info:material_name;PLA
;Slicer info:filament_cost;[0.0]
;Slicer info:material_bed_temperature;60
;Slicer info:material_bed_temperature_layer_0;60
;Slicer info:material_print_temperature;195.0
;Slicer info:material_print_temperature_layer_0;200.0
;Slicer info:material_flow;100
;Slicer info:layer_height;0.28
;Slicer info:machine_nozzle_size;0.4
;Slicer info:wall_thickness;1.2000000000000002
;Slicer info:speed_print;50.0
;Slicer info:speed_topbottom;35.0
;Slicer info:travel_speed;100.0
;Slicer info:support;0
;Slicer info:retraction_speed;30
;Slicer info:retraction_amount;6
;Slicer info:layer_height;0.28
;Slicer info:infill_pattern;grid
;Slicer info:infill_sparse_density;15
;Slicer info:cool_fan_enabled;True
;Slicer info:cool_fan_speed;60.0
;Slicer info:sliced_at;Sat 16-03-2024 11:37:04
G21                                        ; metric values 
G90                                        ; absolute positioning 
M82                                        ; set extruder to absolute mode 
M900 K0                                    ; disable lin. adv. if not set in GCODE
M107                                       ; start with the fan off 
M140 S60   ; Start heating the bed 
G4 S60                                     ; wait 1 minute 
M104 S200.0 ; start heating the hot end 
M190 S60   ; wait for bed 
M109 S200.0 ; wait for hotend 
M300 S1000 P500                            ; BEEP heating done 
G28 X0 Y10 Z0                              ; move X/Y to min endstops 
M420 S1                                    ; Enable leveling 
M420 Z2.0                                  ; Set leveling fading height to 2 mm 
G0 Z0.15                                   ; lift nozzle a bit 
G92 E0                                     ; zero the extruded length 
G1 X50 E20 F500                            ; Extrude 20mm of filament in a 5cm line. 
G92 E0                                     ; zero the extruded length again 
G1 E-2 F500                                ; Retract a little 
G1 X50 F500                                ; wipe away from the filament line
G1 X100 F9000                              ; Quickly wipe away from the filament line
G92 E0
G92 E0
G1 F1800 E-6
;LAYER_COUNT:15
;LAYER:0
M106 S76.5
M204 S3000
M205 X10 Y10
G1 F480 Z0.48
G0 F6000 X82.318 Y82.621 Z0.48
M204 S1500
M205 X8 Y8
;TYPE:SKIRT
G1 F480 Z0.28
G1 F1800 E0
G1 F1200 X82.896 Y82.079 E0.03874
G1 X83.541 Y81.616 E0.07756
G1 X84.194 Y81.262 E0.11388
G1 X84.793 Y81.024 E0.14539
G1 X85.625 Y80.809 E0.1874
G1 X86.574 Y80.704 E0.23409
G1 X122.805 Y80.7 E2.00551
G1 X123.625 Y80.713 E2.0456
G1 X124.268 Y80.762 E2.07713
G1 X125.097 Y80.93 E2.11849
G1 X125.797 Y81.172 E2.1547
G1 X126.378 Y81.451 E2.18621
G1 X127.048 Y81.879 E2.22508
G1 X127.654 Y82.39 E2.26384
G1 X128.094 Y82.862 E2.29539
G1 X128.561 Y83.502 E2.33413
G1 X128.919 Y84.154 E2.37049
G1 X129.178 Y84.798 E2.40443
G1 X129.392 Y85.63 E2.44643
G1 X129.496 Y86.576 E2.49296
G1 X129.5 Y122.838 E4.2659
G1 X129.489 Y123.615 E4.30389
G1 X129.441 Y124.258 E4.33542
G1 X129.287 Y125.036 E4.3742
G1 X129.032 Y125.789 E4.41306
G1 X128.707 Y126.455 E4.4493
G1 X128.359 Y126.998 E4.48083
G1 X127.887 Y127.572 E4.51716
G1 X127.271 Y128.149 E4.55843
G1 X126.749 Y128.528 E4.58997
G1 X126.01 Y128.935 E4.63122
G1 X125.365 Y129.189 E4.66511
G1 X124.581 Y129.39 E4.70468
G1 X123.626 Y129.496 E4.75166
G1 X87.329 Y129.5 E6.52631
G1 X86.582 Y129.489 E6.56284
G1 X85.939 Y129.44 E6.59437
G1 X85.161 Y129.286 E6.63314
G1 X84.41 Y129.032 E6.6719
G1 X83.829 Y128.754 E6.70339
G1 X83.118 Y128.296 E6.74474
G1 X82.587 Y127.849 E6.77868
G1 X82.049 Y127.269 E6.81736
G1 X81.67 Y126.747 E6.8489
G1 X81.263 Y126.009 E6.8901
G1 X81.025 Y125.41 E6.92162
G1 X80.81 Y124.578 E6.96363
G1 X80.704 Y123.62 E7.01076
G1 X80.7 Y87.293 E8.78687
G1 X80.711 Y86.579 E8.82179
G1 X80.76 Y85.936 E8.85331
G1 X80.915 Y85.158 E8.8921
G1 X81.169 Y84.407 E8.93086
G1 X81.448 Y83.826 E8.96237
G1 X81.905 Y83.115 E9.0037
G1 X82.318 Y82.621 E9.03518
M204 S3000
M205 X10 Y10
G0 F6000 X82.625 Y82.878
M204 S1500
M205 X8 Y8
G1 F1200 X83.13 Y82.403 E9.06908
G1 X83.733 Y81.967 E9.10546
G1 X84.342 Y81.634 E9.13939
G1 X84.941 Y81.396 E9.17091
G1 X85.669 Y81.207 E9.20768
G1 X86.618 Y81.102 E9.25436
G1 X122.799 Y81.1 E11.02334
G1 X123.595 Y81.112 E11.06226
G1 X124.238 Y81.161 E11.09379
G1 X124.968 Y81.309 E11.13021
G1 X125.624 Y81.533 E11.1641
G1 X126.205 Y81.812 E11.19561
G1 X126.831 Y82.215 E11.23201
G1 X127.361 Y82.663 E11.26594
G1 X127.801 Y83.135 E11.29749
G1 X128.21 Y83.695 E11.3314
G1 X128.568 Y84.347 E11.36776
G1 X128.806 Y84.946 E11.39928
G1 X128.994 Y85.674 E11.43604
G1 X129.098 Y86.62 E11.48257
G1 X129.1 Y122.833 E13.25311
G1 X129.09 Y123.585 E13.28988
G1 X129.042 Y124.228 E13.32141
G1 X128.908 Y124.909 E13.35534
G1 X128.672 Y125.615 E13.39173
G1 X128.37 Y126.239 E13.42563
G1 X128.022 Y126.782 E13.45716
G1 X127.579 Y127.317 E13.49112
G1 X127.036 Y127.825 E13.52748
G1 X126.514 Y128.204 E13.55902
G1 X125.863 Y128.563 E13.59537
G1 X125.218 Y128.817 E13.62926
G1 X124.537 Y128.992 E13.66364
G1 X123.582 Y129.098 E13.71061
G1 X87.335 Y129.1 E15.48282
G1 X86.612 Y129.09 E15.51817
G1 X85.969 Y129.041 E15.5497
G1 X85.288 Y128.907 E15.58363
G1 X84.583 Y128.671 E15.61998
G1 X84.002 Y128.393 E15.65147
G1 X83.376 Y127.99 E15.68787
G1 X82.845 Y127.543 E15.72181
G1 X82.373 Y127.034 E15.75575
G1 X81.994 Y126.512 E15.78729
G1 X81.635 Y125.861 E15.82364
G1 X81.397 Y125.262 E15.85515
G1 X81.208 Y124.534 E15.89192
G1 X81.102 Y123.576 E15.93905
G1 X81.1 Y87.299 E17.71272
G1 X81.11 Y86.609 E17.74646
G1 X81.159 Y85.966 E17.77799
G1 X81.294 Y85.285 E17.81193
G1 X81.53 Y84.58 E17.84828
G1 X81.809 Y83.999 E17.87979
G1 X82.212 Y83.372 E17.91623
G1 X82.625 Y82.878 E17.94771
M204 S3000
M205 X10 Y10
G0 F6000 X82.932 Y83.135
M204 S1500
M205 X8 Y8
G1 F1200 X83.403 Y82.695 E17.97923
G1 X83.926 Y82.317 E18.01078
G1 X84.49 Y82.006 E18.04227
G1 X85.089 Y81.768 E18.07378
G1 X85.713 Y81.605 E18.10531
G1 X86.662 Y81.5 E18.152
G1 X122.793 Y81.5 E19.91853
G1 X123.565 Y81.511 E19.95628
G1 X124.208 Y81.56 E19.9878
G1 X124.84 Y81.688 E20.01933
G1 X125.451 Y81.894 E20.05086
G1 X126.032 Y82.173 E20.08237
G1 X126.574 Y82.522 E20.11389
G1 X127.068 Y82.936 E20.1454
G1 X127.508 Y83.408 E20.17695
G1 X127.886 Y83.93 E20.20846
G1 X128.196 Y84.495 E20.23997
G1 X128.434 Y85.094 E20.27148
G1 X128.596 Y85.718 E20.303
G1 X128.7 Y86.664 E20.34953
G1 X128.7 Y122.828 E22.11768
G1 X128.691 Y123.555 E22.15323
G1 X128.643 Y124.198 E22.18475
G1 X128.516 Y124.83 E22.21627
G1 X128.311 Y125.442 E22.24783
G1 X128.033 Y126.023 E22.27932
G1 X127.685 Y126.566 E22.31085
G1 X127.272 Y127.061 E22.34237
G1 X126.801 Y127.501 E22.37388
G1 X126.279 Y127.88 E22.40542
G1 X125.715 Y128.191 E22.43691
G1 X125.116 Y128.43 E22.46844
G1 X124.493 Y128.594 E22.49994
G1 X123.538 Y128.7 E22.54692
G1 X87.34 Y128.7 E24.31673
G1 X86.642 Y128.691 E24.35086
G1 X85.999 Y128.642 E24.38239
G1 X85.367 Y128.515 E24.4139
G1 X84.756 Y128.31 E24.44541
G1 X84.175 Y128.032 E24.4769
G1 X83.632 Y127.683 E24.50846
G1 X83.137 Y127.27 E24.53998
G1 X82.697 Y126.799 E24.5715
G1 X82.318 Y126.277 E24.60304
G1 X82.007 Y125.713 E24.63453
G1 X81.769 Y125.114 E24.66604
G1 X81.606 Y124.49 E24.69757
G1 X81.5 Y123.532 E24.7447
G1 X81.5 Y87.304 E26.51597
G1 X81.509 Y86.639 E26.54849
G1 X81.558 Y85.996 E26.58002
G1 X81.686 Y85.364 E26.61154
G1 X81.891 Y84.753 E26.64305
G1 X82.17 Y84.172 E26.67456
G1 X82.519 Y83.629 E26.70612
G1 X82.932 Y83.135 E26.73761
M204 S3000
M205 X10 Y10
G1 F1800 E20.73761
G1 F480 Z0.48
;MESH:model.stl
G0 F6000 X120.335 Y120.498 Z0.48
M204 S1500
M205 X8 Y8
;TYPE:WALL-OUTER
G1 F480 Z0.28
G1 F1800 E26.73761
G1 F1200 X89.844 Y120.5 E28.22838
G1 X89.702 Y120.335 E28.23903
G1 X89.7 Y89.844 E29.72981
G1 X89.865 Y89.702 E29.74045
G1 X120.364 Y89.7 E31.23162
G1 X120.5 Y89.836 E31.24102
G1 X120.498 Y120.335 E32.73219
G1 X120.335 Y120.498 E32.74346
M204 S3000
M205 X10 Y10
G0 F6000 X120.135 Y120.498
G1 F1800 E26.74346
G1 F480 Z0.48
G0 F6000 X123.3 Y123.3 Z0.48
M204 S1500
M205 X8 Y8
G1 F480 Z0.28
G1 F1800 E32.74346
G1 F1200 X123.3 Y86.9 E34.52314
G1 X86.901 Y86.901 E36.30278
G1 X86.901 Y123.299 E38.08236
G1 X123.3 Y123.3 E39.862
M204 S3000
M205 X10 Y10
G0 F6000 X123.3 Y123.1
G0 X122.9 Y122.9
M204 S1500
M205 X8 Y8
;TYPE:WALL-INNER
G1 F1200 X122.9 Y87.3 E41.60257
G1 X87.301 Y87.301 E43.34309
G1 X87.301 Y122.899 E45.08356
G1 X122.9 Y122.9 E46.82408
M204 S3000
M205 X10 Y10
G0 F6000 X122.5 Y122.5
M204 S1500
M205 X8 Y8
G1 F1200 X122.5 Y87.7 E48.52554
G1 X87.702 Y87.702 E50.22689
G1 X87.702 Y122.498 E51.92815
G1 X122.5 Y122.5 E53.62951
M204 S3000
M205 X10 Y10
G1 F1800 E47.62951
G1 F480 Z0.48
G0 F6000 X120.724 Y120.724 Z0.48
M204 S1500
M205 X8 Y8
G1 F480 Z0.28
G1 F1800 E53.62951
G1 F1200 X120.377 Y120.9 E53.64853
G1 X89.9 Y120.9 E55.13863
G1 X89.475 Y120.725 E55.1611
G1 X89.3 Y120.377 E55.18015
G1 X89.3 Y89.9 E56.67024
G1 X89.475 Y89.475 E56.69271
G1 X89.823 Y89.3 E56.71176
G1 X120.49 Y89.3 E58.21114
G1 X120.9 Y89.709 E58.23945
G1 X120.9 Y120.377 E59.73889
G1 X120.724 Y120.724 E59.75791
M204 S3000
M205 X10 Y10
G0 F6000 X121.007 Y121.007
M204 S1500
M205 X8 Y8
G1 F1200 X120.426 Y121.3 E59.78972
G1 X89.9 Y121.3 E61.28221
G1 X89.502 Y121.218 E61.30208
G1 X89.192 Y121.008 E61.32039
G1 X88.9 Y120.426 E61.35222
G1 X88.9 Y89.9 E62.84471
G1 X88.982 Y89.502 E62.86458
G1 X89.192 Y89.192 E62.88289
G1 X89.774 Y88.9 E62.91472
G1 X120.3 Y88.9 E64.40721
G1 X120.698 Y88.982 E64.42708
G1 X121.007 Y89.193 E64.44537
G1 X121.219 Y89.502 E64.4637
G1 X121.3 Y89.9 E64.48355
G1 X121.3 Y120.426 E65.97604
G1 X121.007 Y121.007 E66.00786
M204 S3000
M205 X10 Y10
G0 F6000 X120.886 Y121.549
M204 S1500
M205 X8 Y8
;TYPE:SKIN
G1 F1167.9 X120.485 Y121.689 E66.02919
G1 F1134.8 X89.859 Y121.688 E67.61267
G1 F1167.9 X89.317 Y121.549 E67.64078
G1 F1200 X88.925 Y121.275 E67.66417
G1 X88.622 Y120.826 E67.69065
G1 F1167.9 X88.512 Y120.484 E67.7087
G1 F1137.4 X88.512 Y89.859 E69.28838
G1 F1167.9 X88.652 Y89.317 E69.3165
G1 F1200 X88.925 Y88.925 E69.33986
G1 X89.374 Y88.622 E69.36634
G1 F1167.9 X89.716 Y88.512 E69.38439
G1 F1134.8 X120.341 Y88.512 E70.96782
G1 F1165 X120.883 Y88.652 E70.99601
G1 F1200 X121.299 Y88.955 E71.02117
G1 X121.58 Y89.388 E71.04641
G1 F1165 X121.688 Y89.859 E71.07074
G1 F1134.8 X121.689 Y120.485 E72.65422
G1 F1167.9 X121.549 Y120.886 E72.67556
G1 F1200 X121.275 Y121.275 E72.69882
G1 X120.886 Y121.549 E72.72208
M204 S3000
M205 X10 Y10
G0 F6000 X120.907 Y122.119
M204 S1500
M205 X8 Y8
G1 F1200 X122.12 Y122.12 E72.78139
G1 X122.12 Y120.907 E72.8407
G1 F1167.9 X122.109 Y120.521 E72.8601
G1 F1134.8 X122.108 Y89.817 E74.44761
G1 F1165 X122.12 Y89.334 E74.47194
G1 F1200 X122.12 Y88.08 E74.53325
G1 X120.864 Y88.08 E74.59466
G1 F1165 X120.384 Y88.092 E74.61884
G1 F1134.8 X89.68 Y88.093 E76.20635
G1 F1167.9 X89.296 Y88.082 E76.22565
G1 F1200 X88.082 Y88.082 E76.285
G1 X88.082 Y89.336 E76.34631
G1 F1167.9 X88.093 Y89.817 E76.37048
G1 F1137.4 X88.093 Y120.52 E77.95419
G1 F1167.9 X88.082 Y120.904 E77.97349
G1 F1200 X88.082 Y122.118 E78.03284
G1 X89.336 Y122.118 E78.09416
G1 F1167.9 X89.817 Y122.107 E78.11833
G1 F1134.8 X120.521 Y122.108 E79.70584
G1 F1167.9 X120.907 Y122.119 E79.72524
M204 S3000
M205 X10 Y10
G1 F1800 E73.72524
G1 F480 Z0.48
G0 F6000 X88.541 Y121.917 Z0.48
M204 S1500
M205 X8 Y8
G1 F480 Z0.28
G1 F1800 E79.72524
G1 F1200 X88.281 Y121.657 E79.74321
M204 S3000
M205 X10 Y10
G0 F6000 X88.281 Y121.091
M204 S1500
M205 X8 Y8
G1 F1200 X89.107 Y121.917 E79.80033
M204 S3000
M205 X10 Y10
G0 F6000 X89.58 Y121.824
M204 S1500
M205 X8 Y8
G1 F1200 X89.656 Y121.9 E79.80558
M204 S3000
M205 X10 Y10
G1 F1800 E73.80558
G1 F480 Z0.48
G0 F6000 X120.697 Y121.828 Z0.48
M204 S1500
M205 X8 Y8
G1 F480 Z0.28
G1 F1800 E79.80558
G1 F1200 X120.778 Y121.91 E79.81122
M204 S3000
M205 X10 Y10
G0 F6000 X121.086 Y121.652
M204 S1500
M205 X8 Y8
G1 F1200 X121.352 Y121.917 E79.82958
M204 S3000
M205 X10 Y10
G0 F6000 X121.416 Y121.416
M204 S1500
M205 X8 Y8
G1 F1200 X121.919 Y121.919 E79.86435
M204 S3000
M205 X10 Y10
G0 F6000 X121.919 Y121.353
M204 S1500
M205 X8 Y8
G1 F1200 X121.651 Y121.085 E79.88289
M204 S3000
M205 X10 Y10
G0 F6000 X121.912 Y120.78
M204 S1500
M205 X8 Y8
G1 F1200 X121.828 Y120.696 E79.88869
M104 S195
M204 S3000
M205 X10 Y10
G1 F1800 E73.88869
G1 F480 Z0.48
G0 F6000 X121.903 Y89.659 Z0.48
M204 S1500
M205 X8 Y8
G1 F480 Z0.28
G1 F1800 E79.88869
G1 F1200 X121.824 Y89.58 E79.89416
M204 S3000
M205 X10 Y10
G0 F6000 X121.919 Y89.109
M204 S1500
M205 X8 Y8
G1 F1200 X121.089 Y88.28 E79.95151
M204 S3000
M205 X10 Y10
G0 F6000 X120.617 Y88.373
M204 S1500
M205 X8 Y8
G1 F1200 X120.54 Y88.296 E79.95684
M204 S3000
M205 X10 Y10
G0 F6000 X121.655 Y88.28
M204 S1500
M205 X8 Y8
G1 F1200 X121.919 Y88.543 E79.97505
M204 S3000
M205 X10 Y10
G1 F1800 E73.97505
G1 F480 Z0.48
G0 F6000 X89.502 Y88.37 Z0.48
M204 S1500
M205 X8 Y8
G1 F480 Z0.28
G1 F1800 E79.97505
G1 F1200 X89.42 Y88.289 E79.98069
M204 S3000
M205 X10 Y10
G0 F6000 X89.113 Y88.548
M204 S1500
M205 X8 Y8
G1 F1200 X88.847 Y88.281 E79.99912
M204 S3000
M205 X10 Y10
G0 F6000 X88.783 Y88.783
M204 S1500
M205 X8 Y8
G1 F1200 X88.281 Y88.281 E80.03383
M204 S3000
M205 X10 Y10
G0 F6000 X88.281 Y88.847
M204 S1500
M205 X8 Y8
G1 F1200 X88.549 Y89.115 E80.05236
M204 S3000
M205 X10 Y10
G0 F6000 X88.285 Y89.416
M204 S1500
M205 X8 Y8
G1 F1200 X88.392 Y89.523 E80.05976
M204 S3000
M205 X10 Y10
G1 F1800 E74.05976
G1 F480 Z0.48
;MESH:NONMESH
G0 F6000 X82.932 Y83.135 Z0.48
;TIME_ELAPSED:93.945481
;LAYER:1
M106 S102
G0 X82.932 Y83.135 Z0.76
M204 S1500
M205 X8 Y8
;TYPE:SKIRT
G1 F480 Z0.56
G1 F1800 E80.05976
G1 F1200 X83.403 Y82.695 E80.08977
G1 X83.926 Y82.317 E80.11982
G1 X84.49 Y82.006 E80.14981
G1 X85.089 Y81.768 E80.17982
G1 X85.713 Y81.605 E80.20985
G1 X86.662 Y81.5 E80.25431
G1 X122.793 Y81.5 E81.93672
G1 X123.565 Y81.511 E81.97267
G1 X124.208 Y81.56 E82.0027
G1 X124.84 Y81.688 E82.03273
G1 X125.451 Y81.894 E82.06275
G1 X126.032 Y82.173 E82.09276
G1 X126.574 Y82.522 E82.12278
G1 X127.068 Y82.936 E82.15279
G1 X127.508 Y83.408 E82.18284
G1 X127.886 Y83.93 E82.21285
G1 X128.196 Y84.495 E82.24286
G1 X128.434 Y85.094 E82.27287
G1 X128.596 Y85.718 E82.30289
G1 X128.7 Y86.664 E82.3472
G1 X128.7 Y122.828 E84.03115
G1 X128.691 Y123.555 E84.06501
G1 X128.643 Y124.198 E84.09503
G1 X128.516 Y124.83 E84.12505
G1 X128.311 Y125.442 E84.1551
G1 X128.033 Y126.023 E84.18509
G1 X127.685 Y126.566 E84.21512
G1 X127.272 Y127.061 E84.24514
G1 X126.801 Y127.501 E84.27515
G1 X126.279 Y127.88 E84.30519
G1 X125.715 Y128.191 E84.33518
G1 X125.116 Y128.43 E84.36521
G1 X124.493 Y128.594 E84.39521
G1 X123.538 Y128.7 E84.43995
G1 X87.34 Y128.7 E86.12548
G1 X86.642 Y128.691 E86.15799
G1 X85.999 Y128.642 E86.18802
G1 X85.367 Y128.515 E86.21803
G1 X84.756 Y128.31 E86.24804
G1 X84.175 Y128.032 E86.27803
G1 X83.632 Y127.683 E86.30809
G1 X83.137 Y127.27 E86.33811
G1 X82.697 Y126.799 E86.36812
G1 X82.318 Y126.277 E86.39816
G1 X82.007 Y125.713 E86.42815
G1 X81.769 Y125.114 E86.45816
G1 X81.606 Y124.49 E86.48819
G1 X81.5 Y123.532 E86.53307
G1 X81.5 Y87.304 E88.22
G1 X81.509 Y86.639 E88.25097
G1 X81.558 Y85.996 E88.281
G1 X81.686 Y85.364 E88.31102
G1 X81.891 Y84.753 E88.34103
G1 X82.17 Y84.172 E88.37104
G1 X82.519 Y83.629 E88.4011
G1 X82.932 Y83.135 E88.43108
M204 S3000
M205 X10 Y10
G1 F1800 E82.43108
G1 F480 Z0.76
;MESH:model.stl
G0 F6000 X120.335 Y120.498 Z0.76
M204 S1500
M205 X8 Y8
;TYPE:WALL-OUTER
G1 F480 Z0.56
G1 F1800 E88.43108
G1 F1500 X89.844 Y120.5 E89.85087
G1 X89.702 Y120.335 E89.86101
G1 X89.7 Y89.844 E91.2808
G1 X89.865 Y89.702 E91.29093
G1 X120.364 Y89.7 E92.71109
G1 X120.5 Y89.836 E92.72005
G1 X120.498 Y120.335 E94.14021
