;FLAVOR:Marlin
;TIME:2320
;Filament used: 2.93652m
;Layer height: 0.28
;MINX:64.051
;MINY:75.151
;MINZ:0.28
;MAXX:146.149
;MAXY:135.049
;MAXZ:15.12
;TARGET_MACHINE.NAME:Anycubic i3 Mega S/Pro
;Generated with Cura_SteamEngine 5.6.0
M82 ;absolute extrusion mode
;Profil Homepage: https://github.com/NilsRo/Cura_Anycubic_MegaS_Profile

;Slicer Information - (Support for OctoPrint Slicer Estimator)
;Slicer info:material_guid;0ff92885-617b-4144-a03c-9989872454bc
;Slicer info:material_id;generic_pla_175
;Slicer info:material_brand;Generic
;Slicer info:material_name;PLA
;Slicer info:filament_cost;[0.0]
;Slicer info:material_bed_temperature;60
;Slicer info:material_bed_temperature_layer_0;60
;Slicer info:material_print_temperature;195.0
;Slicer info:material_print_temperature_layer_0;200.0
;Slicer info:material_flow;100
;Slicer info:layer_height;0.28
;Slicer info:machine_nozzle_size;0.4
;Slicer info:wall_thickness;1.2000000000000002
;Slicer info:speed_print;50.0
;Slicer info:speed_topbottom;35.0
;Slicer info:travel_speed;100.0
;Slicer info:support;0
;Slicer info:retraction_speed;30
;Slicer info:retraction_amount;6
;Slicer info:layer_height;0.28
;Slicer info:infill_pattern;grid
;Slicer info:infill_sparse_density;15
;Slicer info:cool_fan_enabled;True
;Slicer info:cool_fan_speed;60.0
;Slicer info:sliced_at;Sun 10-03-2024 07:35:13
G21                                        ; metric values 
G90                                        ; absolute positioning 
M82                                        ; set extruder to absolute mode 
M900 K0                                    ; disable lin. adv. if not set in GCODE
M107                                       ; start with the fan off 
M140 S60   ; Start heating the bed 
G4 S60                                     ; wait 1 minute 
M104 S200.0 ; start heating the hot end 
M190 S60   ; wait for bed 
M109 S200.0 ; wait for hotend 
M300 S1000 P500                            ; BEEP heating done 
G28 X0 Y10 Z0                              ; move X/Y to min endstops 
M420 S1                                    ; Enable leveling 
M420 Z2.0                                  ; Set leveling fading height to 2 mm 
G0 Z0.15                                   ; lift nozzle a bit 
G92 E0                                     ; zero the extruded length 
G1 X50 E20 F500                            ; Extrude 20mm of filament in a 5cm line. 
G92 E0                                     ; zero the extruded length again 
G1 E-2 F500                                ; Retract a little 
G1 X50 F500                                ; wipe away from the filament line
G1 X100 F9000                              ; Quickly wipe away from the filament line
G92 E0
G92 E0
G1 F1800 E-6
;LAYER_COUNT:54
;LAYER:0
M106 S76.5
M204 S3000
M205 X10 Y10
G1 F480 Z0.355
G0 F6000 X66.704 Y76.591 Z0.355
M204 S1500
M205 X8 Y8
;TYPE:SKIRT
G1 F480 Z0.28
G1 F1800 E0
G1 F1200 X67.397 Y76.118 E0.04102
G1 X68.049 Y75.779 E0.07695
G1 X68.675 Y75.516 E0.11015
G1 X69.487 Y75.29 E0.15136
G1 X70.216 Y75.182 E0.18739
G1 X71.61 Y75.151 E0.25556
G1 X138.805 Y75.151 E3.54089
G1 X139.612 Y75.164 E3.58035
G1 X140.305 Y75.22 E3.61434
G1 X141.092 Y75.386 E3.65367
G1 X142.074 Y75.74 E3.7047
G1 X142.846 Y76.142 E3.74726
G1 X143.497 Y76.591 E3.78593
G1 X144.094 Y77.118 E3.82486
G1 X144.762 Y77.872 E3.87411
G1 X145.176 Y78.485 E3.91028
G1 X145.521 Y79.149 E3.94686
G1 X145.784 Y79.775 E3.98006
G1 X146.01 Y80.587 E4.02127
G1 X146.118 Y81.315 E4.05725
G1 X146.149 Y82.7 E4.12499
G1 X146.148 Y127.753 E6.32774
G1 X146.136 Y128.508 E6.36465
G1 X146.08 Y129.2 E6.3986
G1 X145.916 Y129.988 E6.43795
G1 X145.567 Y130.963 E6.48858
G1 X145.166 Y131.735 E6.53112
G1 X144.776 Y132.31 E6.56509
G1 X144.15 Y133.025 E6.61155
G1 X143.428 Y133.662 E6.65862
G1 X142.815 Y134.076 E6.69479
G1 X142.151 Y134.421 E6.73138
G1 X141.525 Y134.684 E6.76457
G1 X140.713 Y134.91 E6.80578
G1 X139.984 Y135.018 E6.84181
G1 X138.575 Y135.049 E6.91072
G1 X71.319 Y135.048 E10.19903
G1 X70.588 Y135.036 E10.23477
G1 X69.895 Y134.98 E10.26877
G1 X69.108 Y134.814 E10.30809
G1 X68.126 Y134.46 E10.35913
G1 X67.354 Y134.058 E10.40168
G1 X66.741 Y133.638 E10.43801
G1 X66.056 Y133.03 E10.4828
G1 X65.454 Y132.345 E10.52738
G1 X65.013 Y131.694 E10.56583
G1 X64.672 Y131.035 E10.6021
G1 X64.406 Y130.396 E10.63595
G1 X64.215 Y129.728 E10.66991
G1 X64.074 Y128.793 E10.71615
G1 X64.051 Y127.459 E10.78138
G1 X64.052 Y82.419 E12.98349
G1 X64.064 Y81.688 E13.01924
G1 X64.127 Y80.945 E13.05569
G1 X64.284 Y80.211 E13.09239
G1 X64.611 Y79.287 E13.14032
G1 X65.035 Y78.464 E13.18558
G1 X65.486 Y77.81 E13.22442
G1 X66.093 Y77.131 E13.26895
G1 X66.704 Y76.591 E13.30882
M204 S3000
M205 X10 Y10
G0 F6000 X66.969 Y76.891
M204 S1500
M205 X8 Y8
G1 F1200 X67.582 Y76.473 E13.34509
G1 X68.204 Y76.148 E13.37941
G1 X68.83 Y75.885 E13.41261
G1 X69.546 Y75.686 E13.44894
G1 X70.275 Y75.578 E13.48497
G1 X71.618 Y75.551 E13.55065
G1 X138.799 Y75.551 E16.83529
G1 X139.58 Y75.563 E16.87348
G1 X140.273 Y75.619 E16.90747
G1 X140.958 Y75.763 E16.94169
G1 X141.889 Y76.095 E16.99002
G1 X142.661 Y76.497 E17.03257
G1 X143.232 Y76.891 E17.06649
G1 X143.829 Y77.418 E17.10543
G1 X144.431 Y78.097 E17.14979
G1 X144.821 Y78.67 E17.18368
G1 X145.152 Y79.304 E17.21865
G1 X145.415 Y79.93 E17.25185
G1 X145.614 Y80.646 E17.28818
G1 X145.722 Y81.374 E17.32417
G1 X145.749 Y82.7 E17.38901
G1 X145.748 Y127.747 E19.59147
G1 X145.737 Y128.478 E19.62721
G1 X145.688 Y129.12 E19.65869
G1 X145.539 Y129.854 E19.69531
G1 X145.211 Y130.78 E19.74334
G1 X144.835 Y131.51 E19.78349
G1 X144.445 Y132.085 E19.81746
G1 X143.884 Y132.726 E19.85911
G1 X143.203 Y133.331 E19.90364
G1 X142.63 Y133.721 E19.93753
G1 X141.996 Y134.052 E19.9725
G1 X141.37 Y134.315 E20.0057
G1 X140.654 Y134.514 E20.04203
G1 X139.925 Y134.622 E20.07806
G1 X138.575 Y134.649 E20.14408
G1 X71.325 Y134.648 E23.4321
G1 X70.62 Y134.637 E23.46657
G1 X69.927 Y134.581 E23.50056
G1 X69.242 Y134.437 E23.53479
G1 X68.311 Y134.105 E23.58311
G1 X67.539 Y133.703 E23.62567
G1 X67.007 Y133.339 E23.65718
G1 X66.322 Y132.731 E23.70196
G1 X65.755 Y132.082 E23.7441
G1 X65.368 Y131.509 E23.77791
G1 X65.041 Y130.88 E23.81257
G1 X64.791 Y130.286 E23.84408
G1 X64.6 Y129.618 E23.87805
G1 X64.474 Y128.786 E23.91919
G1 X64.451 Y127.459 E23.98408
G1 X64.452 Y82.425 E26.1859
G1 X64.463 Y81.72 E26.22037
G1 X64.519 Y81.027 E26.25436
G1 X64.662 Y80.343 E26.28853
G1 X64.967 Y79.47 E26.33374
G1 X65.391 Y78.647 E26.37901
G1 X65.785 Y78.076 E26.41293
G1 X66.358 Y77.431 E26.45511
G1 X66.969 Y76.891 E26.49498
M204 S3000
M205 X10 Y10
G0 F6000 X67.234 Y77.191
M204 S1500
M205 X8 Y8
G1 F1200 X67.767 Y76.828 E26.52651
G1 X68.389 Y76.503 E26.56082
G1 X68.984 Y76.254 E26.59235
G1 X69.605 Y76.082 E26.62386
G1 X70.334 Y75.974 E26.65989
G1 X71.625 Y75.951 E26.72302
G1 X138.793 Y75.951 E30.00703
G1 X139.55 Y75.962 E30.04404
G1 X140.193 Y76.011 E30.07557
G1 X140.825 Y76.14 E30.10711
G1 X141.705 Y76.45 E30.15272
G1 X142.435 Y76.827 E30.19289
G1 X142.967 Y77.191 E30.22441
G1 X143.564 Y77.718 E30.26334
G1 X144.101 Y78.324 E30.30293
G1 X144.466 Y78.855 E30.33444
G1 X144.797 Y79.489 E30.3694
G1 X145.046 Y80.084 E30.40094
G1 X145.218 Y80.705 E30.43245
G1 X145.326 Y81.433 E30.46843
G1 X145.349 Y82.7 E30.53039
G1 X145.348 Y127.741 E32.73255
G1 X145.338 Y128.448 E32.76712
G1 X145.289 Y129.09 E32.7986
G1 X145.161 Y129.722 E32.83013
G1 X144.855 Y130.597 E32.87545
G1 X144.479 Y131.327 E32.9156
G1 X144.115 Y131.859 E32.94711
G1 X143.584 Y132.462 E32.9864
G1 X142.976 Y133.001 E33.02612
G1 X142.445 Y133.366 E33.05762
G1 X141.811 Y133.697 E33.09259
G1 X141.216 Y133.946 E33.12413
G1 X140.595 Y134.118 E33.15563
G1 X139.866 Y134.226 E33.19167
G1 X138.575 Y134.249 E33.2548
G1 X71.331 Y134.248 E36.54252
G1 X70.65 Y134.238 E36.57582
G1 X70.007 Y134.189 E36.60734
G1 X69.375 Y134.06 E36.63888
G1 X68.495 Y133.75 E36.6845
G1 X67.765 Y133.373 E36.72467
G1 X67.233 Y133.009 E36.75618
G1 X66.622 Y132.467 E36.79612
G1 X66.086 Y131.857 E36.83582
G1 X65.723 Y131.324 E36.86735
G1 X65.41 Y130.725 E36.90039
G1 X65.16 Y130.131 E36.9319
G1 X64.985 Y129.51 E36.96345
G1 X64.874 Y128.779 E36.9996
G1 X64.851 Y127.459 E37.06415
G1 X64.852 Y82.431 E39.26567
G1 X64.862 Y81.75 E39.29897
G1 X64.911 Y81.107 E39.3305
G1 X65.04 Y80.475 E39.36204
G1 X65.345 Y79.602 E39.40725
G1 X65.721 Y78.873 E39.44735
G1 X66.085 Y78.341 E39.47887
G1 X66.623 Y77.731 E39.51864
G1 X67.234 Y77.191 E39.55851
M204 S3000
M205 X10 Y10
G1 F1800 E33.55851
G1 F480 Z0.355
;MESH:expansionSetup.stl
G0 F6000 X139.502 Y128.402 Z0.355
M204 S1500
M205 X8 Y8
;TYPE:WALL-OUTER
G1 F480 Z0.28
G1 F1800 E39.55851
G1 F1200 X139.502 Y81.798 E41.83709
G1 X70.697 Y81.797 E45.20113
G1 X70.697 Y128.403 E47.47981
G1 X139.502 Y128.402 E50.84385
M204 S3000
M205 X10 Y10
G0 F6000 X139.502 Y128.202
G0 X139.102 Y128.002
M204 S1500
M205 X8 Y8
;TYPE:WALL-INNER
G1 F1200 X139.102 Y82.198 E53.08332
G1 X71.097 Y82.197 E56.40824
G1 X71.097 Y128.003 E58.64781
G1 X139.102 Y128.002 E61.97274
M204 S3000
M205 X10 Y10
G0 F6000 X138.702 Y127.602
M204 S1500
M205 X8 Y8
G1 F1200 X138.702 Y82.598 E64.17309
G1 X71.497 Y82.597 E67.4589
G1 X71.497 Y127.603 E69.65936
G1 X138.702 Y127.602 E72.94517
M204 S3000
M205 X10 Y10
G0 F6000 X138.322 Y127.222
M204 S1500
M205 X8 Y8
;TYPE:SKIN
G1 F1200 X138.322 Y82.978 E75.10836
G1 X71.877 Y82.977 E78.35702
G1 X71.877 Y127.223 E80.52031
G1 X138.322 Y127.222 E83.76897
M204 S3000
M205 X10 Y10
G1 F1800 E77.76897
G1 F480 Z0.355
G0 F6000 X138.121 Y83.249 Z0.355
M204 S1500
M205 X8 Y8
G1 F480 Z0.28
G1 F1800 E83.76897
G1 F1200 X138.049 Y83.177 E83.77395
M204 S3000
M205 X10 Y10
G0 F6000 X137.483 Y83.177
M204 S1500
M205 X8 Y8
G1 F1200 X138.121 Y83.815 E83.81806
M204 S3000
M205 X10 Y10
G0 F6000 X138.121 Y84.381
M204 S1500
M205 X8 Y8
G1 F1200 X136.917 Y83.177 E83.90131
M204 S3000
M205 X10 Y10
G0 F6000 X136.352 Y83.177
M204 S1500
M205 X8 Y8
G1 F1200 X138.121 Y84.946 E84.02363
M204 S3000
M205 X10 Y10
G0 F6000 X138.121 Y85.512
M204 S1500
M205 X8 Y8
G1 F1200 X135.786 Y83.177 E84.18508
M204 S3000
M205 X10 Y10
G0 F6000 X135.22 Y83.177
M204 S1500
M205 X8 Y8
G1 F1200 X138.121 Y86.078 E84.38567
M204 S3000
M205 X10 Y10
G0 F6000 X138.121 Y86.643
M204 S1500
M205 X8 Y8
G1 F1200 X134.655 Y83.177 E84.62532
M204 S3000
M205 X10 Y10
G0 F6000 X134.089 Y83.177
M204 S1500
M205 X8 Y8
G1 F1200 X138.121 Y87.209 E84.90411
M204 S3000
M205 X10 Y10
G0 F6000 X138.121 Y87.775
M204 S1500
M205 X8 Y8
G1 F1200 X133.523 Y83.177 E85.22204
M204 S3000
M205 X10 Y10
G0 F6000 X132.957 Y83.177
M204 S1500
M205 X8 Y8
G1 F1200 X138.121 Y88.34 E85.57906
M204 S3000
M205 X10 Y10
G0 F6000 X138.121 Y88.906
M204 S1500
M205 X8 Y8
G1 F1200 X132.392 Y83.177 E85.97519
M204 S3000
M205 X10 Y10
G0 F6000 X131.826 Y83.177
M204 S1500
M205 X8 Y8
G1 F1200 X138.121 Y89.472 E86.41045
M204 S3000
M205 X10 Y10
G0 F6000 X138.121 Y90.038
M204 S1500
M205 X8 Y8
G1 F1200 X131.26 Y83.177 E86.88485
M204 S3000
M205 X10 Y10
G0 F6000 X130.695 Y83.177
M204 S1500
M205 X8 Y8
G1 F1200 X138.121 Y90.603 E87.39832
M204 S3000
M205 X10 Y10
G0 F6000 X138.121 Y91.169
M204 S1500
M205 X8 Y8
G1 F1200 X130.129 Y83.177 E87.95092
M204 S3000
M205 X10 Y10
G0 F6000 X129.563 Y83.177
M204 S1500
M205 X8 Y8
G1 F1200 X138.121 Y91.735 E88.54266
M204 S3000
M205 X10 Y10
G0 F6000 X138.121 Y92.3
M204 S1500
M205 X8 Y8
G1 F1200 X128.998 Y83.177 E89.17346
M204 S3000
M205 X10 Y10
G0 F6000 X128.432 Y83.177
M204 S1500
M205 X8 Y8
G1 F1200 X138.121 Y92.866 E89.8434
M204 S3000
M205 X10 Y10
G0 F6000 X138.121 Y93.432
M204 S1500
M205 X8 Y8
G1 F1200 X127.866 Y83.177 E90.55247
M204 S3000
M205 X10 Y10
G0 F6000 X127.301 Y83.177
M204 S1500
M205 X8 Y8
G1 F1200 X138.121 Y93.997 E91.30061
M204 S3000
M205 X10 Y10
G0 F6000 X138.121 Y94.563
M204 S1500
M205 X8 Y8
G1 F1200 X126.735 Y83.177 E92.08789
M204 S3000
M205 X10 Y10
G0 F6000 X126.169 Y83.177
M204 S1500
M205 X8 Y8
G1 F1200 X138.121 Y95.129 E92.9143
M204 S3000
M205 X10 Y10
G0 F6000 X138.121 Y95.694
M204 S1500
M205 X8 Y8
G1 F1200 X125.604 Y83.177 E93.77978
M204 S3000
M205 X10 Y10
G0 F6000 X125.038 Y83.177
M204 S1500
M205 X8 Y8
G1 F1200 X138.121 Y96.26 E94.6844
M204 S3000
M205 X10 Y10
G0 F6000 X138.121 Y96.826
M204 S1500
M205 X8 Y8
G1 F1200 X124.472 Y83.177 E95.62815
M204 S3000
M205 X10 Y10
G0 F6000 X123.907 Y83.177
M204 S1500
M205 X8 Y8
G1 F1200 X138.121 Y97.391 E96.61097
M204 S3000
M205 X10 Y10
G0 F6000 X138.121 Y97.957
M204 S1500
M205 X8 Y8
G1 F1200 X123.341 Y83.177 E97.63292
M204 S3000
M205 X10 Y10
G0 F6000 X122.775 Y83.177
M204 S1500
M205 X8 Y8
G1 F1200 X138.121 Y98.523 E98.69401
M204 S3000
M205 X10 Y10
G0 F6000 X138.121 Y99.088
M204 S1500
M205 X8 Y8
G1 F1200 X122.209 Y83.177 E99.7942
M204 S3000
M205 X10 Y10
G0 F6000 X121.644 Y83.177
M204 S1500
M205 X8 Y8
G1 F1200 X138.121 Y99.654 E100.93349
M204 S3000
M205 X10 Y10
G0 F6000 X138.121 Y100.22
M204 S1500
M205 X8 Y8
G1 F1200 X121.078 Y83.177 E102.11191
M204 S3000
M205 X10 Y10
G0 F6000 X120.512 Y83.177
M204 S1500
M205 X8 Y8
G1 F1200 X138.121 Y100.786 E103.32947
M204 S3000
M205 X10 Y10
G0 F6000 X138.121 Y101.351
M204 S1500
M205 X8 Y8
G1 F1200 X119.947 Y83.177 E104.5861
M204 S3000
M205 X10 Y10
G0 F6000 X119.381 Y83.177
M204 S1500
M205 X8 Y8
G1 F1200 X138.121 Y101.917 E105.88187
M204 S3000
M205 X10 Y10
G0 F6000 X138.121 Y102.483
M204 S1500
M205 X8 Y8
G1 F1200 X118.815 Y83.177 E107.21677
M204 S3000
M205 X10 Y10
G0 F6000 X118.25 Y83.177
M204 S1500
M205 X8 Y8
G1 F1200 X138.121 Y103.048 E108.59073
M204 S3000
M205 X10 Y10
G0 F6000 X138.121 Y103.614
M204 S1500
M205 X8 Y8
G1 F1200 X117.684 Y83.177 E110.00383
M204 S3000
M205 X10 Y10
G0 F6000 X117.118 Y83.177
M204 S1500
M205 X8 Y8
G1 F1200 X138.121 Y104.18 E111.45607
M204 S3000
M205 X10 Y10
G0 F6000 X138.121 Y104.745
M204 S1500
M205 X8 Y8
G1 F1200 X116.553 Y83.177 E112.94738
M204 S3000
M205 X10 Y10
G0 F6000 X115.987 Y83.177
M204 S1500
M205 X8 Y8
G1 F1200 X138.121 Y105.311 E114.47782
M204 S3000
M205 X10 Y10
G0 F6000 X138.121 Y105.877
M204 S1500
M205 X8 Y8
G1 F1200 X115.421 Y83.177 E116.04739
M204 S3000
M205 X10 Y10
G0 F6000 X114.856 Y83.177
M204 S1500
M205 X8 Y8
G1 F1200 X138.121 Y106.442 E117.65603
M204 S3000
M205 X10 Y10
G0 F6000 X138.121 Y107.008
M204 S1500
M205 X8 Y8
G1 F1200 X114.29 Y83.177 E119.30381
M204 S3000
M205 X10 Y10
G0 F6000 X113.724 Y83.177
M204 S1500
M205 X8 Y8
G1 F1200 X138.121 Y107.574 E120.99072
M204 S3000
M205 X10 Y10
G0 F6000 X138.121 Y108.139
M204 S1500
M205 X8 Y8
G1 F1200 X113.159 Y83.177 E122.7167
M204 S3000
M205 X10 Y10
G0 F6000 X112.593 Y83.177
M204 S1500
M205 X8 Y8
G1 F1200 X138.121 Y108.705 E124.48182
M204 S3000
M205 X10 Y10
G0 F6000 X138.121 Y109.271
M204 S1500
M205 X8 Y8
G1 F1200 X112.027 Y83.177 E126.28607
M204 S3000
M205 X10 Y10
G0 F6000 X111.461 Y83.177
M204 S1500
M205 X8 Y8
G1 F1200 X138.121 Y109.837 E128.12946
M204 S3000
M205 X10 Y10
G0 F6000 X138.121 Y110.402
M204 S1500
M205 X8 Y8
G1 F1200 X110.896 Y83.177 E130.01191
M204 S3000
M205 X10 Y10
G0 F6000 X110.33 Y83.177
M204 S1500
M205 X8 Y8
G1 F1200 X138.121 Y110.968 E131.9335
M204 S3000
M205 X10 Y10
G0 F6000 X138.121 Y111.534
M204 S1500
M205 X8 Y8
G1 F1200 X109.764 Y83.177 E133.89422
M204 S3000
M205 X10 Y10
G0 F6000 X109.199 Y83.177
M204 S1500
M205 X8 Y8
G1 F1200 X138.121 Y112.099 E135.89402
M204 S3000
M205 X10 Y10
G0 F6000 X138.121 Y112.665
M204 S1500
M205 X8 Y8
G1 F1200 X108.633 Y83.177 E137.93294
M204 S3000
M205 X10 Y10
G0 F6000 X108.067 Y83.177
M204 S1500
M205 X8 Y8
G1 F1200 X138.121 Y113.231 E140.01101
M204 S3000
M205 X10 Y10
G0 F6000 X138.121 Y113.796
M204 S1500
M205 X8 Y8
G1 F1200 X107.502 Y83.177 E142.12813
M204 S3000
M205 X10 Y10
G0 F6000 X106.936 Y83.177
M204 S1500
M205 X8 Y8
G1 F1200 X138.121 Y114.362 E144.2844
M204 S3000
M205 X10 Y10
G0 F6000 X138.121 Y114.928
M204 S1500
M205 X8 Y8
G1 F1200 X106.37 Y83.177 E146.4798
M204 S3000
M205 X10 Y10
G0 F6000 X105.805 Y83.177
M204 S1500
M205 X8 Y8
G1 F1200 X138.121 Y115.493 E148.71427
M204 S3000
M205 X10 Y10
G0 F6000 X138.121 Y116.059
M204 S1500
M205 X8 Y8
G1 F1200 X105.239 Y83.177 E150.98787
M204 S3000
M205 X10 Y10
G0 F6000 X104.673 Y83.176
M204 S1500
M205 X8 Y8
G1 F1200 X138.121 Y116.625 E153.30064
M204 S3000
M205 X10 Y10
G0 F6000 X138.121 Y117.19
M204 S1500
M205 X8 Y8
