;FLAVOR:Marlin
;TIME:6540
;Filament used: 7.82019m
;Layer height: 0.28
;MINX:28.952
;MINY:75.151
;MINZ:0.28
;MAXX:181.248
;MAXY:135.049
;MAXZ:15.195
;TARGET_MACHINE.NAME:Anycubic i3 Mega S/Pro
;Generated with Cura_SteamEngine 5.6.0
M82 ;absolute extrusion mode
;Profil Homepage: https://github.com/NilsRo/Cura_Anycubic_MegaS_Profile

;Slicer Information - (Support for OctoPrint Slicer Estimator)
;Slicer info:material_guid;0ff92885-617b-4144-a03c-9989872454bc
;Slicer info:material_id;generic_pla_175
;Slicer info:material_brand;Generic
;Slicer info:material_name;PLA
;Slicer info:filament_cost;[0.0]
;Slicer info:material_bed_temperature;60
;Slicer info:material_bed_temperature_layer_0;60
;Slicer info:material_print_temperature;195.0
;Slicer info:material_print_temperature_layer_0;200.0
;Slicer info:material_flow;100
;Slicer info:layer_height;0.28
;Slicer info:machine_nozzle_size;0.4
;Slicer info:wall_thickness;1.2000000000000002
;Slicer info:speed_print;50.0
;Slicer info:speed_topbottom;35.0
;Slicer info:travel_speed;100.0
;Slicer info:support;0
;Slicer info:retraction_speed;30
;Slicer info:retraction_amount;6
;Slicer info:layer_height;0.28
;Slicer info:infill_pattern;grid
;Slicer info:infill_sparse_density;15
;Slicer info:cool_fan_enabled;True
;Slicer info:cool_fan_speed;60.0
;Slicer info:sliced_at;Sat 09-03-2024 09:10:19
G21                                        ; metric values 
G90                                        ; absolute positioning 
M82                                        ; set extruder to absolute mode 
M900 K0                                    ; disable lin. adv. if not set in GCODE
M107                                       ; start with the fan off 
M140 S60   ; Start heating the bed 
G4 S60                                     ; wait 1 minute 
M104 S200.0 ; start heating the hot end 
M190 S60   ; wait for bed 
M109 S200.0 ; wait for hotend 
M300 S1000 P500                            ; BEEP heating done 
G28 X0 Y10 Z0                              ; move X/Y to min endstops 
M420 S1                                    ; Enable leveling 
M420 Z2.0                                  ; Set leveling fading height to 2 mm 
G0 Z0.15                                   ; lift nozzle a bit 
G92 E0                                     ; zero the extruded length 
G1 X50 E20 F500                            ; Extrude 20mm of filament in a 5cm line. 
G92 E0                                     ; zero the extruded length again 
G1 E-2 F500                                ; Retract a little 
G1 X50 F500                                ; wipe away from the filament line
G1 X100 F9000                              ; Quickly wipe away from the filament line
G92 E0
G92 E0
G1 F1800 E-6
;LAYER_COUNT:54
;LAYER:0
M106 S76.5
M204 S3000
M205 X10 Y10
G1 F480 Z0.355
G0 F6000 X33.021 Y75.735 Z0.355
M204 S1500
M205 X8 Y8
;TYPE:SKIRT
G1 F480 Z0.28
G1 F1800 E0
G1 F1200 X33.739 Y75.46 E0.03759
G1 X34.571 Y75.256 E0.07947
G1 X35.488 Y75.167 E0.12452
G1 X36.458 Y75.151 E0.17195
G1 X173.905 Y75.151 E6.89207
G1 X174.717 Y75.164 E6.93177
G1 X175.46 Y75.227 E6.96823
G1 X176.196 Y75.385 E7.00503
G1 X177.173 Y75.736 E7.05579
G1 X177.908 Y76.114 E7.0962
G1 X178.57 Y76.564 E7.13534
G1 X179.405 Y77.332 E7.1908
G1 X179.943 Y77.981 E7.23202
G1 X180.394 Y78.685 E7.2729
G1 X180.701 Y79.321 E7.30743
G1 X180.963 Y80.014 E7.34365
G1 X181.131 Y80.696 E7.37799
G1 X181.232 Y81.684 E7.42655
G1 X181.248 Y82.647 E7.47364
G1 X181.247 Y127.753 E9.67898
G1 X181.235 Y128.513 E9.71614
G1 X181.179 Y129.206 E9.75013
G1 X181.015 Y129.994 E9.78949
G1 X180.669 Y130.959 E9.83961
G1 X180.25 Y131.762 E9.88389
G1 X179.887 Y132.295 E9.91542
G1 X179.201 Y133.074 E9.96617
G1 X178.575 Y133.627 E10.00701
G1 X177.884 Y134.098 E10.0479
G1 X177.179 Y134.465 E10.08676
G1 X176.461 Y134.74 E10.12435
G1 X175.629 Y134.944 E10.16623
G1 X174.712 Y135.033 E10.21128
G1 X173.728 Y135.049 E10.25939
G1 X36.219 Y135.048 E16.98254
G1 X35.483 Y135.036 E17.01853
G1 X34.74 Y134.973 E17.05499
G1 X34.004 Y134.815 E17.09179
G1 X33.027 Y134.464 E17.14255
G1 X32.292 Y134.086 E17.18296
G1 X31.586 Y133.603 E17.22478
G1 X30.871 Y132.951 E17.27209
G1 X30.227 Y132.178 E17.32128
G1 X29.806 Y131.515 E17.35968
G1 X29.508 Y130.9 E17.39309
G1 X29.233 Y130.173 E17.4311
G1 X29.067 Y129.491 E17.46541
G1 X28.968 Y128.51 E17.51362
G1 X28.952 Y127.513 E17.56237
G1 X28.953 Y82.417 E19.76723
G1 X28.965 Y81.682 E19.80317
G1 X29.028 Y80.939 E19.83962
G1 X29.186 Y80.203 E19.87643
G1 X29.532 Y79.242 E19.92637
G1 X29.95 Y78.438 E19.97067
G1 X30.313 Y77.905 E20.0022
G1 X30.999 Y77.126 E20.05295
G1 X31.625 Y76.573 E20.09379
G1 X32.316 Y76.102 E20.13468
G1 X33.021 Y75.735 E20.17354
M204 S3000
M205 X10 Y10
G0 F6000 X33.164 Y76.109
M204 S1500
M205 X8 Y8
G1 F1200 X33.882 Y75.834 E20.21113
G1 X34.61 Y75.654 E20.24779
G1 X35.495 Y75.567 E20.29127
G1 X36.465 Y75.551 E20.3387
G1 X173.899 Y75.551 E27.05818
G1 X174.685 Y75.563 E27.09661
G1 X175.378 Y75.619 E27.13061
G1 X176.062 Y75.762 E27.16477
G1 X176.99 Y76.092 E27.21293
G1 X177.725 Y76.47 E27.25334
G1 X178.344 Y76.894 E27.29002
G1 X179.097 Y77.587 E27.34006
G1 X179.635 Y78.236 E27.38127
G1 X180.034 Y78.86 E27.41749
G1 X180.327 Y79.464 E27.45031
G1 X180.575 Y80.112 E27.48423
G1 X180.733 Y80.737 E27.51575
G1 X180.832 Y81.691 E27.56264
G1 X180.848 Y82.647 E27.60939
G1 X180.847 Y127.747 E29.81444
G1 X180.836 Y128.483 E29.85043
G1 X180.787 Y129.126 E29.88196
G1 X180.638 Y129.86 E29.91858
G1 X180.314 Y130.775 E29.96603
G1 X179.919 Y131.537 E30.008
G1 X179.556 Y132.07 E30.03953
G1 X178.936 Y132.774 E30.08539
G1 X178.31 Y133.327 E30.12623
G1 X177.699 Y133.744 E30.1624
G1 X177.036 Y134.091 E30.19899
G1 X176.318 Y134.366 E30.23658
G1 X175.59 Y134.546 E30.27324
G1 X174.705 Y134.633 E30.31672
G1 X173.728 Y134.649 E30.3645
G1 X36.225 Y134.648 E37.08735
G1 X35.515 Y134.637 E37.12206
G1 X34.822 Y134.581 E37.15606
G1 X34.138 Y134.438 E37.19022
G1 X33.21 Y134.108 E37.23838
G1 X32.475 Y133.73 E37.27879
G1 X31.856 Y133.307 E37.31544
G1 X31.141 Y132.655 E37.36275
G1 X30.564 Y131.963 E37.40681
G1 X30.166 Y131.34 E37.44295
G1 X29.882 Y130.757 E37.47466
G1 X29.622 Y130.078 E37.51021
G1 X29.456 Y129.396 E37.54452
G1 X29.368 Y128.504 E37.58835
G1 X29.352 Y127.513 E37.63681
G1 X29.353 Y82.423 E39.84137
G1 X29.364 Y81.714 E39.87603
G1 X29.42 Y81.021 E39.91003
G1 X29.563 Y80.337 E39.94419
G1 X29.887 Y79.426 E39.99147
G1 X30.281 Y78.663 E40.03345
G1 X30.644 Y78.13 E40.06498
G1 X31.264 Y77.426 E40.11085
G1 X31.89 Y76.873 E40.15168
G1 X32.501 Y76.456 E40.18785
G1 X33.164 Y76.109 E40.22444
M204 S3000
M205 X10 Y10
G0 F6000 X33.307 Y76.483
M204 S1500
M205 X8 Y8
G1 F1200 X34.025 Y76.208 E40.26203
G1 X34.65 Y76.052 E40.29353
G1 X35.502 Y75.967 E40.33539
G1 X36.472 Y75.951 E40.38282
G1 X173.893 Y75.951 E47.10166
G1 X174.655 Y75.962 E47.13892
G1 X175.298 Y76.011 E47.17045
G1 X175.929 Y76.139 E47.20193
G1 X176.807 Y76.448 E47.24744
G1 X177.542 Y76.826 E47.28785
G1 X178.074 Y77.189 E47.31934
G1 X178.789 Y77.842 E47.36668
G1 X179.327 Y78.491 E47.4079
G1 X179.674 Y79.035 E47.43945
G1 X179.954 Y79.609 E47.47067
G1 X180.187 Y80.21 E47.50219
G1 X180.345 Y80.835 E47.53371
G1 X180.432 Y81.698 E47.57611
G1 X180.448 Y82.647 E47.62252
G1 X180.447 Y127.741 E49.82727
G1 X180.437 Y128.453 E49.86209
G1 X180.388 Y129.096 E49.89362
G1 X180.26 Y129.728 E49.92514
G1 X179.958 Y130.592 E49.96989
G1 X179.588 Y131.312 E50.00947
G1 X179.225 Y131.845 E50.041
G1 X178.671 Y132.474 E50.08198
G1 X178.045 Y133.027 E50.12282
G1 X177.512 Y133.39 E50.15435
G1 X176.893 Y133.717 E50.18858
G1 X176.175 Y133.992 E50.22617
G1 X175.55 Y134.148 E50.25766
G1 X174.698 Y134.233 E50.29953
G1 X173.728 Y134.249 E50.34696
G1 X36.231 Y134.248 E57.06952
G1 X35.545 Y134.238 E57.10306
G1 X34.902 Y134.189 E57.13459
G1 X34.271 Y134.061 E57.16607
G1 X33.393 Y133.752 E57.21158
G1 X32.658 Y133.374 E57.25199
G1 X32.126 Y133.011 E57.28348
G1 X31.411 Y132.359 E57.33079
G1 X30.872 Y131.708 E57.37211
G1 X30.526 Y131.165 E57.40359
G1 X30.242 Y130.582 E57.4353
G1 X30.01 Y129.981 E57.46679
G1 X29.854 Y129.356 E57.49829
G1 X29.768 Y128.498 E57.54045
G1 X29.752 Y127.513 E57.58862
G1 X29.753 Y82.429 E59.79288
G1 X29.763 Y81.744 E59.82637
G1 X29.812 Y81.101 E59.8579
G1 X29.94 Y80.47 E59.88938
G1 X30.243 Y79.608 E59.93406
G1 X30.612 Y78.888 E59.97361
G1 X30.975 Y78.355 E60.00514
G1 X31.529 Y77.726 E60.04612
G1 X32.155 Y77.173 E60.08696
G1 X32.688 Y76.81 E60.11849
G1 X33.307 Y76.483 E60.15272
M204 S3000
M205 X10 Y10
G1 F1800 E54.15272
G1 F480 Z0.355
;MESH:activePlay.stl
G0 F6000 X174.601 Y128.402 Z0.355
M204 S1500
M205 X8 Y8
;TYPE:WALL-OUTER
G1 F480 Z0.28
G1 F1800 E60.15272
G1 F1200 X174.601 Y81.798 E62.4313
G1 X35.598 Y81.797 E69.22749
G1 X35.598 Y128.403 E71.50617
G1 X174.601 Y128.402 E78.30236
M204 S3000
M205 X10 Y10
G0 F6000 X174.601 Y128.202
G0 X174.201 Y128.002
M204 S1500
M205 X8 Y8
;TYPE:WALL-INNER
G1 F1200 X174.201 Y82.198 E80.54183
G1 X35.998 Y82.197 E87.2989
G1 X35.998 Y128.003 E89.53847
G1 X174.201 Y128.002 E96.29554
M204 S3000
M205 X10 Y10
G0 F6000 X173.801 Y127.602
M204 S1500
M205 X8 Y8
G1 F1200 X173.801 Y82.598 E98.4959
G1 X36.398 Y82.597 E105.21386
G1 X36.398 Y127.603 E107.41431
G1 X173.801 Y127.602 E114.13227
M204 S3000
M205 X10 Y10
G0 F6000 X173.421 Y127.222
M204 S1500
M205 X8 Y8
;TYPE:SKIN
G1 F1200 X173.421 Y82.978 E116.29547
G1 X36.778 Y82.977 E122.97627
G1 X36.778 Y127.223 E125.13957
G1 X173.421 Y127.222 E131.82037
M204 S3000
M205 X10 Y10
G1 F1800 E125.82037
G1 F480 Z0.355
G0 F6000 X173.22 Y83.276 Z0.355
M204 S1500
M205 X8 Y8
G1 F480 Z0.28
G1 F1800 E131.82037
G1 F1200 X173.121 Y83.177 E131.82722
M204 S3000
M205 X10 Y10
G0 F6000 X172.555 Y83.177
M204 S1500
M205 X8 Y8
G1 F1200 X173.22 Y83.842 E131.8732
M204 S3000
M205 X10 Y10
G0 F6000 X173.22 Y84.408
M204 S1500
M205 X8 Y8
G1 F1200 X171.99 Y83.177 E131.95828
M204 S3000
M205 X10 Y10
G0 F6000 X171.424 Y83.177
M204 S1500
M205 X8 Y8
G1 F1200 X173.22 Y84.973 E132.08246
M204 S3000
M205 X10 Y10
G0 F6000 X173.22 Y85.539
M204 S1500
M205 X8 Y8
G1 F1200 X170.858 Y83.177 E132.24578
M204 S3000
M205 X10 Y10
G0 F6000 X170.293 Y83.177
M204 S1500
M205 X8 Y8
G1 F1200 X173.22 Y86.105 E132.4482
M204 S3000
M205 X10 Y10
G0 F6000 X173.22 Y86.67
M204 S1500
M205 X8 Y8
G1 F1200 X169.727 Y83.177 E132.68972
M204 S3000
M205 X10 Y10
G0 F6000 X169.161 Y83.177
M204 S1500
M205 X8 Y8
G1 F1200 X173.22 Y87.236 E132.97038
M204 S3000
M205 X10 Y10
G0 F6000 X173.22 Y87.802
M204 S1500
M205 X8 Y8
G1 F1200 X168.596 Y83.177 E133.29014
M204 S3000
M205 X10 Y10
G0 F6000 X168.03 Y83.177
M204 S1500
M205 X8 Y8
G1 F1200 X173.22 Y88.367 E133.64899
M204 S3000
M205 X10 Y10
G0 F6000 X173.22 Y88.933
M204 S1500
M205 X8 Y8
G1 F1200 X167.464 Y83.177 E134.04699
M204 S3000
M205 X10 Y10
G0 F6000 X166.899 Y83.177
M204 S1500
M205 X8 Y8
G1 F1200 X173.22 Y89.499 E134.48408
M204 S3000
M205 X10 Y10
G0 F6000 X173.22 Y90.064
M204 S1500
M205 X8 Y8
G1 F1200 X166.333 Y83.177 E134.96028
M204 S3000
M205 X10 Y10
G0 F6000 X165.767 Y83.177
M204 S1500
M205 X8 Y8
G1 F1200 X173.22 Y90.63 E135.47561
M204 S3000
M205 X10 Y10
G0 F6000 X173.22 Y91.196
M204 S1500
M205 X8 Y8
G1 F1200 X165.202 Y83.177 E136.03005
M204 S3000
M205 X10 Y10
G0 F6000 X164.636 Y83.177
M204 S1500
M205 X8 Y8
G1 F1200 X173.22 Y91.761 E136.62358
M204 S3000
M205 X10 Y10
G0 F6000 X173.22 Y92.327
M204 S1500
M205 X8 Y8
G1 F1200 X164.07 Y83.177 E137.25625
M204 S3000
M205 X10 Y10
G0 F6000 X163.505 Y83.177
M204 S1500
M205 X8 Y8
G1 F1200 X173.22 Y92.893 E137.92802
M204 S3000
M205 X10 Y10
G0 F6000 X173.22 Y93.459
M204 S1500
M205 X8 Y8
G1 F1200 X162.939 Y83.177 E138.63893
M204 S3000
M205 X10 Y10
G0 F6000 X162.373 Y83.177
M204 S1500
M205 X8 Y8
G1 F1200 X173.22 Y94.024 E139.38894
M204 S3000
M205 X10 Y10
G0 F6000 X173.22 Y94.59
M204 S1500
M205 X8 Y8
G1 F1200 X161.807 Y83.177 E140.17808
M204 S3000
M205 X10 Y10
G0 F6000 X161.242 Y83.177
M204 S1500
M205 X8 Y8
G1 F1200 X173.22 Y95.156 E141.00633
M204 S3000
M205 X10 Y10
G0 F6000 X173.22 Y95.721
M204 S1500
M205 X8 Y8
G1 F1200 X160.676 Y83.177 E141.87367
M204 S3000
M205 X10 Y10
G0 F6000 X160.11 Y83.177
M204 S1500
M205 X8 Y8
G1 F1200 X173.22 Y96.287 E142.78016
M204 S3000
M205 X10 Y10
G0 F6000 X173.22 Y96.853
M204 S1500
M205 X8 Y8
G1 F1200 X159.545 Y83.177 E143.72574
M204 S3000
M205 X10 Y10
G0 F6000 X158.979 Y83.177
M204 S1500
M205 X8 Y8
G1 F1200 X173.22 Y97.418 E144.71042
M204 S3000
M205 X10 Y10
G0 F6000 X173.22 Y97.984
M204 S1500
M205 X8 Y8
G1 F1200 X158.413 Y83.177 E145.73424
M204 S3000
M205 X10 Y10
G0 F6000 X157.848 Y83.177
M204 S1500
M205 X8 Y8
G1 F1200 X173.22 Y98.55 E146.79716
M204 S3000
M205 X10 Y10
G0 F6000 X173.22 Y99.115
M204 S1500
M205 X8 Y8
G1 F1200 X157.282 Y83.177 E147.89918
M204 S3000
M205 X10 Y10
G0 F6000 X156.716 Y83.177
M204 S1500
M205 X8 Y8
G1 F1200 X173.22 Y99.681 E149.04034
M204 S3000
M205 X10 Y10
G0 F6000 X173.22 Y100.247
M204 S1500
M205 X8 Y8
G1 F1200 X156.151 Y83.177 E150.2206
M204 S3000
M205 X10 Y10
G0 F6000 X155.585 Y83.177
M204 S1500
M205 X8 Y8
G1 F1200 X173.22 Y100.812 E151.43996
M204 S3000
M205 X10 Y10
G0 F6000 X173.22 Y101.378
M204 S1500
M205 X8 Y8
G1 F1200 X155.019 Y83.177 E152.69845
M204 S3000
M205 X10 Y10
G0 F6000 X154.454 Y83.177
M204 S1500
M205 X8 Y8
G1 F1200 X173.22 Y101.944 E153.99605
M204 S3000
M205 X10 Y10
G0 F6000 X173.22 Y102.509
M204 S1500
M205 X8 Y8
G1 F1200 X153.888 Y83.177 E155.33275
M204 S3000
M205 X10 Y10
G0 F6000 X153.322 Y83.177
M204 S1500
M205 X8 Y8
G1 F1200 X173.22 Y103.075 E156.70858
M204 S3000
M205 X10 Y10
G0 F6000 X173.22 Y103.641
M204 S1500
M205 X8 Y8
G1 F1200 X152.756 Y83.177 E158.12355
M204 S3000
M205 X10 Y10
G0 F6000 X152.191 Y83.177
M204 S1500
M205 X8 Y8
G1 F1200 X173.22 Y104.207 E159.57762
M204 S3000
M205 X10 Y10
G0 F6000 X173.22 Y104.772
M204 S1500
M205 X8 Y8
G1 F1200 X151.625 Y83.177 E161.07079
M204 S3000
M205 X10 Y10
G0 F6000 X151.059 Y83.177
M204 S1500
M205 X8 Y8
G1 F1200 X173.22 Y105.338 E162.6031
M204 S3000
M205 X10 Y10
G0 F6000 X173.22 Y105.904
M204 S1500
M205 X8 Y8
G1 F1200 X150.494 Y83.177 E164.17451
M204 S3000
M205 X10 Y10
G0 F6000 X149.928 Y83.177
M204 S1500
M205 X8 Y8
G1 F1200 X173.22 Y106.469 E165.78501
M204 S3000
M205 X10 Y10
G0 F6000 X173.22 Y107.035
M204 S1500
M205 X8 Y8
G1 F1200 X149.362 Y83.177 E167.43466
M204 S3000
M205 X10 Y10
G0 F6000 X148.797 Y83.177
M204 S1500
M205 X8 Y8
G1 F1200 X173.22 Y107.601 E169.1234
M204 S3000
M205 X10 Y10
G0 F6000 X173.22 Y108.166
M204 S1500
M205 X8 Y8
G1 F1200 X148.231 Y83.177 E170.85125
M204 S3000
M205 X10 Y10
G0 F6000 X147.665 Y83.177
M204 S1500
M205 X8 Y8
G1 F1200 X173.22 Y108.732 E172.61823
M204 S3000
M205 X10 Y10
G0 F6000 X173.22 Y109.298
M204 S1500
M205 X8 Y8
G1 F1200 X147.1 Y83.177 E174.42432
M204 S3000
M205 X10 Y10
G0 F6000 X146.534 Y83.177
M204 S1500
M205 X8 Y8
G1 F1200 X173.22 Y109.863 E176.2695
M204 S3000
M205 X10 Y10
G0 F6000 X173.22 Y110.429
M204 S1500
M205 X8 Y8
G1 F1200 X145.968 Y83.177 E178.15382
M204 S3000
M205 X10 Y10
G0 F6000 X145.403 Y83.177
M204 S1500
M205 X8 Y8
G1 F1200 X173.22 Y110.995 E180.07724
M204 S3000
M205 X10 Y10
G0 F6000 X173.22 Y111.56
M204 S1500
M205 X8 Y8
G1 F1200 X144.837 Y83.177 E182.03977
M204 S3000
M205 X10 Y10
G0 F6000 X144.271 Y83.177
M204 S1500
M205 X8 Y8
G1 F1200 X173.22 Y112.126 E184.04142
M204 S3000
M205 X10 Y10
G0 F6000 X173.22 Y112.692
M204 S1500
M205 X8 Y8
G1 F1200 X143.706 Y83.177 E186.08218
M204 S3000
M205 X10 Y10
G0 F6000 X143.14 Y83.177
M204 S1500
M205 X8 Y8
G1 F1200 X173.22 Y113.258 E188.16208
M204 S3000
M205 X10 Y10
G0 F6000 X173.22 Y113.823
M204 S1500
M205 X8 Y8
G1 F1200 X142.574 Y83.177 E190.28107
M204 S3000
M205 X10 Y10
G0 F6000 X142.008 Y83.177
M204 S1500
M205 X8 Y8
G1 F1200 X173.22 Y114.389 E192.43921
M204 S3000
M205 X10 Y10
G0 F6000 X173.22 Y114.955
M204 S1500
M205 X8 Y8
G1 F1200 X141.443 Y83.177 E194.63644
M204 S3000
M205 X10 Y10
G0 F6000 X140.877 Y83.177
M204 S1500
M205 X8 Y8
G1 F1200 X173.22 Y115.52 E196.87277
M204 S3000
M205 X10 Y10
G0 F6000 X173.22 Y116.086
M204 S1500
M205 X8 Y8
G1 F1200 X140.311 Y83.177 E199.14824
M204 S3000
M205 X10 Y10
G0 F6000 X139.746 Y83.177
M204 S1500
M205 X8 Y8
G1 F1200 X173.22 Y116.652 E201.46281
M204 S3000
M205 X10 Y10
G0 F6000 X173.22 Y117.217
M204 S1500
M205 X8 Y8
