;FLAVOR:Marlin
;TIME:10877
;Filament used: 13.5882m
;Layer height: 0.28
;MINX:0
;MINY:0
;MINZ:0.28
;MAXX:210.2
;MAXY:210.2
;MAXZ:19.955
;TARGET_MACHINE.NAME:Anycubic i3 Mega S/Pro
;Generated with Cura_SteamEngine 5.6.0
M82 ;absolute extrusion mode
;Profil Homepage: https://github.com/NilsRo/Cura_Anycubic_MegaS_Profile

;Slicer Information - (Support for OctoPrint Slicer Estimator)
;Slicer info:material_guid;0ff92885-617b-4144-a03c-9989872454bc
;Slicer info:material_id;generic_pla_175
;Slicer info:material_brand;Generic
;Slicer info:material_name;PLA
;Slicer info:filament_cost;[0.0]
;Slicer info:material_bed_temperature;60
;Slicer info:material_bed_temperature_layer_0;60
;Slicer info:material_print_temperature;195.0
;Slicer info:material_print_temperature_layer_0;200.0
;Slicer info:material_flow;100
;Slicer info:layer_height;0.28
;Slicer info:machine_nozzle_size;0.4
;Slicer info:wall_thickness;1.2000000000000002
;Slicer info:speed_print;50.0
;Slicer info:speed_topbottom;35.0
;Slicer info:travel_speed;100.0
;Slicer info:support;0
;Slicer info:retraction_speed;30
;Slicer info:retraction_amount;6
;Slicer info:layer_height;0.28
;Slicer info:infill_pattern;grid
;Slicer info:infill_sparse_density;15
;Slicer info:cool_fan_enabled;True
;Slicer info:cool_fan_speed;60.0
;Slicer info:sliced_at;Fri 15-03-2024 09:47:32
G21                                        ; metric values 
G90                                        ; absolute positioning 
M82                                        ; set extruder to absolute mode 
M900 K0                                    ; disable lin. adv. if not set in GCODE
M107                                       ; start with the fan off 
M140 S60   ; Start heating the bed 
G4 S60                                     ; wait 1 minute 
M104 S200.0 ; start heating the hot end 
M190 S60   ; wait for bed 
M109 S200.0 ; wait for hotend 
M300 S1000 P500                            ; BEEP heating done 
G28 X0 Y10 Z0                              ; move X/Y to min endstops 
M420 S1                                    ; Enable leveling 
M420 Z2.0                                  ; Set leveling fading height to 2 mm 
G0 Z0.15                                   ; lift nozzle a bit 
G92 E0                                     ; zero the extruded length 
G1 X50 E20 F500                            ; Extrude 20mm of filament in a 5cm line. 
G92 E0                                     ; zero the extruded length again 
G1 E-2 F500                                ; Retract a little 
G1 X50 F500                                ; wipe away from the filament line
G1 X100 F9000                              ; Quickly wipe away from the filament line
G92 E0
G92 E0
G1 F1800 E-6
;LAYER_COUNT:71
;LAYER:0
M106 S76.5
M204 S3000
M205 X10 Y10
G1 F480 Z0.355
G0 F6000 X0.00 Y46.056 Z0.355
M204 S1500
M205 X8 Y8
;TYPE:SKIRT
G1 F480 Z0.28
G1 F1800 E0
G1 F1200 X46.057 Y0.00 E3.18454
M204 S3000
M205 X10 Y10
G1 F1800 E-2.81546
G1 F480 Z0.355
G0 F6000 X0.00 Y46.622 Z0.355
M204 S1500
M205 X8 Y8
G1 F480 Z0.28
G1 F1800 E3.18454
G1 F1200 X46.623 Y0.00 E6.40822
M204 S3000
M205 X10 Y10
G1 F1800 E0.40822
G1 F480 Z0.355
G0 F6000 X0.00 Y47.188 Z0.355
M204 S1500
M205 X8 Y8
G1 F480 Z0.28
G1 F1800 E6.40822
G1 F1200 X47.189 Y0.00 E9.67104
M204 S3000
M205 X10 Y10
G1 F1800 E3.67104
G1 F480 Z0.355
G0 F6000 X57.639 Y0.00 Z0.355
M204 S1500
M205 X8 Y8
G1 F480 Z0.28
G1 F1800 E9.67104
G1 F1200 X208.437 Y150.794 E20.09772
G1 X208.894 Y151.264 E20.12977
G1 X209.346 Y151.789 E20.16364
G1 X209.79 Y152.454 E20.20274
G1 X210.2 Y153.316 E20.24941
M204 S3000
M205 X10 Y10
G1 F1800 E14.24941
G1 F480 Z0.355
G0 F6000 X57.073 Y0.00 Z0.355
M204 S1500
M205 X8 Y8
G1 F480 Z0.28
G1 F1800 E20.24941
G1 F1200 X208.15 Y151.073 E30.69538
G1 X208.607 Y151.543 E30.72743
G1 X209.043 Y152.05 E30.76013
G1 X209.457 Y152.675 E30.79678
G1 X209.883 Y153.573 E30.84538
G1 X210.146 Y154.408 E30.88818
G1 X210.2 Y154.696 E30.90251
M204 S3000
M205 X10 Y10
G1 F1800 E24.90251
G1 F480 Z0.355
G0 F6000 X56.508 Y0.00 Z0.355
M204 S1500
M205 X8 Y8
G1 F480 Z0.28
G1 F1800 E30.90251
G1 F1200 X207.863 Y151.352 E41.36774
G1 X208.32 Y151.822 E41.39979
G1 X208.74 Y152.311 E41.4313
G1 X209.096 Y152.848 E41.46281
G1 X209.502 Y153.695 E41.50873
G1 X209.753 Y154.482 E41.54912
G1 X209.872 Y155.116 E41.58066
G1 X209.921 Y155.96 E41.62199
G1 X209.865 Y156.784 E41.66237
G1 X209.743 Y157.417 E41.69389
G1 X209.543 Y158.055 E41.72658
G1 X209.234 Y158.757 E41.76408
G1 X208.903 Y159.31 E41.79559
G1 X208.346 Y159.991 E41.83861
G1 X207.765 Y160.589 E41.87937
G1 X160.218 Y208.136 E45.16697
G1 X159.752 Y208.589 E45.19875
G1 X159.262 Y209.008 E45.23027
G1 X158.725 Y209.365 E45.2618
G1 X157.878 Y209.77 E45.3077
G1 X157.092 Y210.021 E45.34804
G1 X156.458 Y210.14 E45.37958
G1 X155.626 Y210.189 E45.42033
G1 X154.814 Y210.133 E45.46013
G1 X154.181 Y210.01 E45.49165
G1 X153.522 Y209.8 E45.52547
G1 X152.927 Y209.552 E45.55699
G1 X152.367 Y209.233 E45.5885
G1 X151.784 Y208.799 E45.62403
G1 X150.884 Y207.93 E45.6852
G1 X0.00 Y57.045 E56.118
M204 S3000
M205 X10 Y10
G0 F6000 X0.00 Y58.177
M204 S1500
M205 X8 Y8
G1 F1200 X150.318 Y208.496 E66.51167
G1 X151.228 Y209.375 E66.57353
G1 X151.928 Y209.901 E66.61634
G1 X152.447 Y210.2 E66.64562
M204 S3000
M205 X10 Y10
G1 F1800 E60.64562
G1 F480 Z0.355
G0 F6000 X0.00 Y57.611 Z0.355
M204 S1500
M205 X8 Y8
G1 F480 Z0.28
G1 F1800 E66.64562
G1 F1200 X150.601 Y208.213 E77.05886
G1 X151.506 Y209.087 E77.12037
G1 X152.128 Y209.554 E77.1584
G1 X152.729 Y209.9 E77.1923
G1 X153.368 Y210.169 E77.2262
G1 X153.465 Y210.2 E77.23118
M204 S3000
M205 X10 Y10
G1 F1800 E71.23118
G1 F480 Z0.355
G0 F6000 X158.833 Y210.2 Z0.355
M204 S1500
M205 X8 Y8
G1 F480 Z0.28
G1 F1800 E77.23118
G1 F1200 X159.069 Y210.088 E77.24395
G1 X159.782 Y209.616 E77.28576
G1 X160.31 Y209.163 E77.31977
G1 X160.776 Y208.71 E77.35155
G1 X208.339 Y161.147 E80.64026
G1 X208.92 Y160.549 E80.68102
G1 X209.556 Y159.769 E80.73023
G1 X209.943 Y159.124 E80.76701
G1 X210.2 Y158.539 E80.79825
M204 S3000
M205 X10 Y10
G0 F6000 X210.2 Y157.155
M204 S1500
M205 X8 Y8
G1 F1200 X210.125 Y157.537 E80.81728
G1 X209.925 Y158.175 E80.84997
G1 X209.6 Y158.918 E80.88962
G1 X209.213 Y159.563 E80.9264
G1 X208.633 Y160.27 E80.97111
G1 X208.052 Y160.868 E81.01187
G1 X160.497 Y208.423 E84.30003
G1 X160.031 Y208.876 E84.3318
G1 X159.522 Y209.312 E84.36457
G1 X158.898 Y209.726 E84.40119
G1 X158 Y210.151 E84.44976
G1 X157.845 Y210.2 E84.45771
M204 S3000
M205 X10 Y10
G1 F1800 E78.45771
G1 F480 Z0.355
;MESH:setup.stl
G0 F6000 X155.653 Y204.431 Z0.355
M204 S1500
M205 X8 Y8
;TYPE:WALL-OUTER
G1 F480 Z0.28
G1 F1800 E84.45771
G1 F1200 X204.164 Y155.921 E87.81193
G1 X51.85 Y3.606 E98.34361
G1 X3.339 Y52.118 E101.6979
G1 X155.653 Y204.431 E112.22951
M204 S3000
M205 X10 Y10
G0 F6000 X155.794 Y204.29
G0 X155.653 Y203.865
M204 S1500
M205 X8 Y8
;TYPE:WALL-INNER
G1 F1200 X203.598 Y155.921 E115.5446
G1 X51.85 Y4.172 E126.03714
G1 X3.905 Y52.118 E129.3523
G1 X155.653 Y203.865 E139.84478
M204 S3000
M205 X10 Y10
G0 F6000 X155.653 Y203.299
M204 S1500
M205 X8 Y8
G1 F1200 X203.032 Y155.921 E143.12073
G1 X51.85 Y4.738 E153.57414
G1 X4.471 Y52.118 E156.85016
G1 X155.653 Y203.299 E167.3035
M204 S3000
M205 X10 Y10
G0 F6000 X155.653 Y202.76
M204 S1500
M205 X8 Y8
;TYPE:SKIN
G1 F1200 X202.493 Y155.921 E170.54218
G1 X51.85 Y5.277 E180.95832
G1 X5.01 Y52.118 E184.19707
G1 X155.653 Y202.76 E194.61314
M204 S3000
M205 X10 Y10
G1 F1800 E188.61314
G1 F480 Z0.355
G0 F6000 X5.511 Y51.898 Z0.355
M204 S1500
M205 X8 Y8
G1 F480 Z0.28
G1 F1800 E194.61314
G1 F1200 X155.871 Y202.257 E205.00964
M204 S3000
M205 X10 Y10
G0 F6000 X156.154 Y201.975
M204 S1500
M205 X8 Y8
G1 F1200 X5.794 Y51.615 E215.40618
M204 S3000
M205 X10 Y10
G0 F6000 X6.077 Y51.332
M204 S1500
M205 X8 Y8
G1 F1200 X156.437 Y201.692 E225.80271
M204 S3000
M205 X10 Y10
G0 F6000 X156.72 Y201.409
M204 S1500
M205 X8 Y8
G1 F1200 X6.36 Y51.049 E236.19925
M204 S3000
M205 X10 Y10
G0 F6000 X6.643 Y50.766
M204 S1500
M205 X8 Y8
G1 F1200 X157.003 Y201.126 E246.59579
M204 S3000
M205 X10 Y10
G0 F6000 X157.286 Y200.843
M204 S1500
M205 X8 Y8
G1 F1200 X6.926 Y50.483 E256.99232
M204 S3000
M205 X10 Y10
G0 F6000 X7.208 Y50.201
M204 S1500
M205 X8 Y8
G1 F1200 X157.568 Y200.56 E267.38882
M204 S3000
M205 X10 Y10
G0 F6000 X157.851 Y200.278
M204 S1500
M205 X8 Y8
G1 F1200 X7.491 Y49.918 E277.78536
M204 S3000
M205 X10 Y10
G0 F6000 X7.774 Y49.635
M204 S1500
M205 X8 Y8
G1 F1200 X158.134 Y199.995 E288.18189
M204 S3000
M205 X10 Y10
G0 F6000 X158.417 Y199.712
M204 S1500
M205 X8 Y8
G1 F1200 X8.057 Y49.352 E298.57843
M204 S3000
M205 X10 Y10
G0 F6000 X8.34 Y49.069
M204 S1500
M205 X8 Y8
G1 F1200 X158.7 Y199.429 E308.97497
M204 S3000
M205 X10 Y10
G0 F6000 X158.983 Y199.146
M204 S1500
M205 X8 Y8
G1 F1200 X8.623 Y48.786 E319.3715
M204 S3000
M205 X10 Y10
G0 F6000 X8.906 Y48.503
M204 S1500
M205 X8 Y8
G1 F1200 X159.265 Y198.863 E329.768
M204 S3000
M205 X10 Y10
G0 F6000 X159.548 Y198.581
M204 S1500
M205 X8 Y8
G1 F1200 X9.188 Y48.221 E340.16454
M204 S3000
M205 X10 Y10
G0 F6000 X9.471 Y47.938
M204 S1500
M205 X8 Y8
G1 F1200 X159.831 Y198.298 E350.56107
M204 S3000
M205 X10 Y10
G0 F6000 X160.114 Y198.015
M204 S1500
M205 X8 Y8
G1 F1200 X9.754 Y47.655 E360.95761
M204 S3000
M205 X10 Y10
G0 F6000 X10.037 Y47.372
M204 S1500
M205 X8 Y8
G1 F1200 X160.397 Y197.732 E371.35415
M204 S3000
M205 X10 Y10
G0 F6000 X160.68 Y197.449
M204 S1500
M205 X8 Y8
G1 F1200 X10.32 Y47.089 E381.75068
M204 S3000
M205 X10 Y10
G0 F6000 X10.603 Y46.806
M204 S1500
M205 X8 Y8
G1 F1200 X160.962 Y197.166 E392.14718
M204 S3000
M205 X10 Y10
G0 F6000 X161.245 Y196.883
M204 S1500
M205 X8 Y8
G1 F1200 X10.885 Y46.524 E402.54369
M204 S3000
M205 X10 Y10
G0 F6000 X11.168 Y46.241
M204 S1500
M205 X8 Y8
G1 F1200 X161.528 Y196.601 E412.94022
M204 S3000
M205 X10 Y10
G0 F6000 X161.811 Y196.318
M204 S1500
M205 X8 Y8
G1 F1200 X11.451 Y45.958 E423.33676
M204 S3000
M205 X10 Y10
G0 F6000 X11.734 Y45.675
M204 S1500
M205 X8 Y8
G1 F1200 X162.094 Y196.035 E433.73329
M204 S3000
M205 X10 Y10
G0 F6000 X162.377 Y195.752
M204 S1500
M205 X8 Y8
G1 F1200 X12.017 Y45.392 E444.12983
M204 S3000
M205 X10 Y10
G0 F6000 X12.3 Y45.109
M204 S1500
M205 X8 Y8
G1 F1200 X162.66 Y195.469 E454.52636
M204 S3000
M205 X10 Y10
G0 F6000 X162.942 Y195.186
M204 S1500
M205 X8 Y8
G1 F1200 X12.582 Y44.827 E464.92287
M204 S3000
M205 X10 Y10
G0 F6000 X12.865 Y44.544
M204 S1500
M205 X8 Y8
G1 F1200 X163.225 Y194.904 E475.3194
M204 S3000
M205 X10 Y10
G0 F6000 X163.508 Y194.621
M204 S1500
M205 X8 Y8
G1 F1200 X13.148 Y44.261 E485.71594
M204 S3000
M205 X10 Y10
G0 F6000 X13.431 Y43.978
M204 S1500
M205 X8 Y8
G1 F1200 X163.791 Y194.338 E496.11247
M204 S3000
M205 X10 Y10
G0 F6000 X164.074 Y194.055
M204 S1500
M205 X8 Y8
G1 F1200 X13.714 Y43.695 E506.50901
M204 S3000
M205 X10 Y10
G0 F6000 X13.997 Y43.412
M204 S1500
M205 X8 Y8
G1 F1200 X164.357 Y193.772 E516.90555
M204 S3000
M205 X10 Y10
G0 F6000 X164.639 Y193.489
M204 S1500
M205 X8 Y8
G1 F1200 X14.28 Y43.129 E527.30205
M204 S3000
M205 X10 Y10
G0 F6000 X14.562 Y42.847
M204 S1500
M205 X8 Y8
G1 F1200 X164.922 Y193.207 E537.69858
M204 S3000
M205 X10 Y10
G0 F6000 X165.205 Y192.924
M204 S1500
M205 X8 Y8
G1 F1200 X14.845 Y42.564 E548.09512
M204 S3000
M205 X10 Y10
G0 F6000 X15.128 Y42.281
M204 S1500
M205 X8 Y8
G1 F1200 X165.488 Y192.641 E558.49165
M204 S3000
M205 X10 Y10
G0 F6000 X165.771 Y192.358
M204 S1500
M205 X8 Y8
G1 F1200 X15.411 Y41.998 E568.88819
M204 S3000
M205 X10 Y10
G0 F6000 X15.694 Y41.715
M204 S1500
M205 X8 Y8
G1 F1200 X166.054 Y192.075 E579.28473
M204 S3000
M205 X10 Y10
G0 F6000 X166.336 Y191.792
M204 S1500
M205 X8 Y8
G1 F1200 X15.977 Y41.432 E589.68123
M204 S3000
M205 X10 Y10
G0 F6000 X16.259 Y41.15
M204 S1500
M205 X8 Y8
G1 F1200 X166.619 Y191.509 E600.07773
M204 S3000
M205 X10 Y10
G0 F6000 X166.902 Y191.227
M204 S1500
M205 X8 Y8
G1 F1200 X16.542 Y40.867 E610.47427
M204 S3000
M205 X10 Y10
G0 F6000 X16.825 Y40.584
M204 S1500
M205 X8 Y8
G1 F1200 X167.185 Y190.944 E620.8708
M204 S3000
M205 X10 Y10
G0 F6000 X167.468 Y190.661
M204 S1500
M205 X8 Y8
G1 F1200 X17.108 Y40.301 E631.26734
M204 S3000
M205 X10 Y10
G0 F6000 X17.391 Y40.018
M204 S1500
M205 X8 Y8
G1 F1200 X167.751 Y190.378 E641.66387
M204 S3000
M205 X10 Y10
G0 F6000 X168.034 Y190.095
M204 S1500
M205 X8 Y8
G1 F1200 X17.674 Y39.735 E652.06041
M204 S3000
M205 X10 Y10
G0 F6000 X17.956 Y39.453
M204 S1500
M205 X8 Y8
G1 F1200 X168.316 Y189.812 E662.45691
M204 S3000
M205 X10 Y10
G0 F6000 X168.599 Y189.53
M204 S1500
M205 X8 Y8
G1 F1200 X18.239 Y39.17 E672.85345
M204 S3000
M205 X10 Y10
G0 F6000 X18.522 Y38.887
M204 S1500
M205 X8 Y8
G1 F1200 X168.882 Y189.247 E683.24998
M204 S3000
M205 X10 Y10
G0 F6000 X169.165 Y188.964
M204 S1500
M205 X8 Y8
G1 F1200 X18.805 Y38.604 E693.64652
M204 S3000
M205 X10 Y10
G0 F6000 X19.088 Y38.321
M204 S1500
M205 X8 Y8
G1 F1200 X169.448 Y188.681 E704.04305
M204 S3000
M205 X10 Y10
G0 F6000 X169.731 Y188.398
M204 S1500
M205 X8 Y8
G1 F1200 X19.371 Y38.038 E714.43959
M204 S3000
M205 X10 Y10
G0 F6000 X19.654 Y37.755
M204 S1500
M205 X8 Y8
G1 F1200 X170.013 Y188.115 E724.83609
M204 S3000
M205 X10 Y10
G0 F6000 X170.296 Y187.833
M204 S1500
M205 X8 Y8
G1 F1200 X19.936 Y37.473 E735.23263
M204 S3000
M205 X10 Y10
G0 F6000 X20.219 Y37.19
M204 S1500
M205 X8 Y8
G1 F1200 X170.579 Y187.55 E745.62916
M204 S3000
M205 X10 Y10
G0 F6000 X170.862 Y187.267
M204 S1500
M205 X8 Y8
G1 F1200 X20.502 Y36.907 E756.0257
M204 S3000
M205 X10 Y10
G0 F6000 X20.785 Y36.624
M204 S1500
M205 X8 Y8
G1 F1200 X171.145 Y186.984 E766.42223
M204 S3000
M205 X10 Y10
G0 F6000 X171.428 Y186.701
M204 S1500
M205 X8 Y8
G1 F1200 X21.068 Y36.341 E776.81877
M204 S3000
M205 X10 Y10
G0 F6000 X21.351 Y36.058
M204 S1500
M205 X8 Y8
G1 F1200 X171.71 Y186.418 E787.21527
M204 S3000
M205 X10 Y10
G0 F6000 X171.993 Y186.135
M204 S1500
M205 X8 Y8
G1 F1200 X21.633 Y35.776 E797.61177
M204 S3000
M205 X10 Y10
G0 F6000 X21.916 Y35.493
M204 S1500
M205 X8 Y8
G1 F1200 X172.276 Y185.853 E808.00831
M204 S3000
M205 X10 Y10
G0 F6000 X172.559 Y185.57
M204 S1500
M205 X8 Y8
G1 F1200 X22.199 Y35.21 E818.40485
M204 S3000
M205 X10 Y10
G0 F6000 X22.482 Y34.927
M204 S1500
M205 X8 Y8
G1 F1200 X172.842 Y185.287 E828.80138
M204 S3000
M205 X10 Y10
G0 F6000 X173.125 Y185.004
M204 S1500
M205 X8 Y8
G1 F1200 X22.765 Y34.644 E839.19792
M204 S3000
M205 X10 Y10
G0 F6000 X23.048 Y34.361
M204 S1500
M205 X8 Y8
G1 F1200 X173.408 Y184.721 E849.59445
M204 S3000
M205 X10 Y10
G0 F6000 X173.69 Y184.438
M204 S1500
M205 X8 Y8
G1 F1200 X23.33 Y34.079 E859.99095
M204 S3000
M205 X10 Y10
G0 F6000 X23.613 Y33.796
M204 S1500
M205 X8 Y8
G1 F1200 X173.973 Y184.156 E870.38749
M204 S3000
M205 X10 Y10
G0 F6000 X174.256 Y183.873
M204 S1500
M205 X8 Y8
G1 F1200 X23.896 Y33.513 E880.78403
M204 S3000
M205 X10 Y10
G0 F6000 X24.179 Y33.23
M204 S1500
M205 X8 Y8
G1 F1200 X174.539 Y183.59 E891.18056
M204 S3000
M205 X10 Y10
G0 F6000 X174.822 Y183.307
M204 S1500
M205 X8 Y8
G1 F1200 X24.462 Y32.947 E901.5771
M204 S3000
M205 X10 Y10
G0 F6000 X24.745 Y32.664
M204 S1500
M205 X8 Y8
G1 F1200 X175.105 Y183.024 E911.97363
M204 S3000
M205 X10 Y10
G0 F6000 X175.387 Y182.741
M204 S1500
M205 X8 Y8
G1 F1200 X25.028 Y32.381 E922.37014
M204 S3000
M205 X10 Y10
G0 F6000 X25.31 Y32.099
M204 S1500
M205 X8 Y8
G1 F1200 X175.67 Y182.459 E932.76667
M204 S3000
M205 X10 Y10
G0 F6000 X175.953 Y182.176
M204 S1500
M205 X8 Y8
G1 F1200 X25.593 Y31.816 E943.16321
M204 S3000
M205 X10 Y10
G0 F6000 X25.876 Y31.533
M204 S1500
M205 X8 Y8
G1 F1200 X176.236 Y181.893 E953.55974
M204 S3000
M205 X10 Y10
G0 F6000 X176.519 Y181.61
M204 S1500
M205 X8 Y8
G1 F1200 X26.159 Y31.25 E963.95628
M204 S3000
M205 X10 Y10
G0 F6000 X26.442 Y30.967
M204 S1500
M205 X8 Y8
G1 F1200 X176.802 Y181.327 E974.35281
M204 S3000
M205 X10 Y10
G0 F6000 X177.084 Y181.044
M204 S1500
M205 X8 Y8
G1 F1200 X26.725 Y30.684 E984.74932
M204 S3000
M205 X10 Y10
G0 F6000 X27.007 Y30.402
M204 S1500
M205 X8 Y8
G1 F1200 X177.367 Y180.761 E995.14582
M204 S3000
M205 X10 Y10
G0 F6000 X177.65 Y180.479
M204 S1500
M205 X8 Y8
G1 F1200 X27.29 Y30.119 E1005.54235
M204 S3000
M205 X10 Y10
G0 F6000 X27.573 Y29.836
M204 S1500
M205 X8 Y8
G1 F1200 X177.933 Y180.196 E1015.93889
M204 S3000
M205 X10 Y10
