;FLAVOR:Marlin
;TIME:4720
;Filament used: 5.61355m
;Layer height: 0.28
;MINX:51.801
;MINY:64.551
;MINZ:0.28
;MAXX:158.399
;MAXY:145.649
;MAXZ:15.195
;TARGET_MACHINE.NAME:Anycubic i3 Mega S/Pro
;Generated with Cura_SteamEngine 5.6.0
M82 ;absolute extrusion mode
;Profil Homepage: https://github.com/NilsRo/Cura_Anycubic_MegaS_Profile

;Slicer Information - (Support for OctoPrint Slicer Estimator)
;Slicer info:material_guid;0ff92885-617b-4144-a03c-9989872454bc
;Slicer info:material_id;generic_pla_175
;Slicer info:material_brand;Generic
;Slicer info:material_name;PLA
;Slicer info:filament_cost;[0.0]
;Slicer info:material_bed_temperature;60
;Slicer info:material_bed_temperature_layer_0;60
;Slicer info:material_print_temperature;195.0
;Slicer info:material_print_temperature_layer_0;200.0
;Slicer info:material_flow;100
;Slicer info:layer_height;0.28
;Slicer info:machine_nozzle_size;0.4
;Slicer info:wall_thickness;1.2000000000000002
;Slicer info:speed_print;50.0
;Slicer info:speed_topbottom;35.0
;Slicer info:travel_speed;100.0
;Slicer info:support;0
;Slicer info:retraction_speed;30
;Slicer info:retraction_amount;6
;Slicer info:layer_height;0.28
;Slicer info:infill_pattern;grid
;Slicer info:infill_sparse_density;15
;Slicer info:cool_fan_enabled;True
;Slicer info:cool_fan_speed;60.0
;Slicer info:sliced_at;Fri 08-03-2024 14:23:38
G21                                        ; metric values 
G90                                        ; absolute positioning 
M82                                        ; set extruder to absolute mode 
M900 K0                                    ; disable lin. adv. if not set in GCODE
M107                                       ; start with the fan off 
M140 S60   ; Start heating the bed 
G4 S60                                     ; wait 1 minute 
M104 S200.0 ; start heating the hot end 
M190 S60   ; wait for bed 
M109 S200.0 ; wait for hotend 
M300 S1000 P500                            ; BEEP heating done 
G28 X0 Y10 Z0                              ; move X/Y to min endstops 
M420 S1                                    ; Enable leveling 
M420 Z2.0                                  ; Set leveling fading height to 2 mm 
G0 Z0.15                                   ; lift nozzle a bit 
G92 E0                                     ; zero the extruded length 
G1 X50 E20 F500                            ; Extrude 20mm of filament in a 5cm line. 
G92 E0                                     ; zero the extruded length again 
G1 E-2 F500                                ; Retract a little 
G1 X50 F500                                ; wipe away from the filament line
G1 X100 F9000                              ; Quickly wipe away from the filament line
G92 E0
G92 E0
G1 F1800 E-6
;LAYER_COUNT:54
;LAYER:0
M106 S76.5
M204 S3000
M205 X10 Y10
G1 F480 Z0.355
G0 F6000 X54.386 Y65.837 Z0.355
M204 S1500
M205 X8 Y8
;TYPE:SKIRT
G1 F480 Z0.28
G1 F1800 E0
G1 F1200 X54.958 Y65.452 E0.03371
G1 X55.612 Y65.112 E0.06975
G1 X56.376 Y64.82 E0.10974
G1 X57.059 Y64.654 E0.1441
G1 X57.945 Y64.567 E0.18763
G1 X58.915 Y64.551 E0.23506
G1 X151.449 Y64.551 E4.75927
G1 X152.235 Y64.563 E4.79771
G1 X152.928 Y64.619 E4.8317
G1 X153.612 Y64.762 E4.86587
G1 X154.524 Y65.087 E4.9132
G1 X155.29 Y65.482 E4.95534
G1 X155.864 Y65.877 E4.98941
G1 X156.539 Y66.48 E5.03366
G1 X157.091 Y67.109 E5.07458
G1 X157.506 Y67.721 E5.11073
G1 X157.826 Y68.334 E5.14454
G1 X158.134 Y69.14 E5.18672
G1 X158.299 Y69.823 E5.22108
G1 X158.385 Y70.705 E5.26441
G1 X158.399 Y71.59 E5.30768
G1 X158.398 Y138.745 E8.59105
G1 X158.387 Y139.485 E8.62724
G1 X158.339 Y140.127 E8.65871
G1 X158.203 Y140.809 E8.69271
G1 X157.851 Y141.806 E8.74441
G1 X157.474 Y142.53 E8.78432
G1 X157.051 Y143.142 E8.82069
G1 X156.475 Y143.785 E8.8629
G1 X155.763 Y144.399 E8.90887
G1 X155.226 Y144.757 E8.94042
G1 X154.61 Y145.078 E8.97438
G1 X153.816 Y145.382 E9.01595
G1 X153.134 Y145.547 E9.05026
G1 X152.255 Y145.633 E9.09344
G1 X151.278 Y145.649 E9.14121
G1 X58.675 Y145.648 E13.6688
G1 X57.965 Y145.637 E13.70351
G1 X57.272 Y145.581 E13.73751
G1 X56.641 Y145.453 E13.76899
G1 X55.662 Y145.11 E13.8197
G1 X54.888 Y144.708 E13.86235
G1 X54.311 Y144.31 E13.89662
G1 X53.553 Y143.615 E13.9469
G1 X53.012 Y142.962 E13.98836
G1 X52.636 Y142.379 E14.02228
G1 X52.298 Y141.679 E14.06028
G1 X52.055 Y141.029 E14.09421
G1 X51.904 Y140.402 E14.12574
G1 X51.815 Y139.489 E14.17059
G1 X51.801 Y138.552 E14.21641
G1 X51.802 Y71.397 E17.49978
G1 X51.813 Y70.71 E17.53337
G1 X51.869 Y70.017 E17.56737
G1 X52.013 Y69.332 E17.60159
G1 X52.335 Y68.426 E17.6486
G1 X52.728 Y67.665 E17.69048
G1 X53.091 Y67.132 E17.72201
G1 X53.718 Y66.421 E17.76835
G1 X54.386 Y65.837 E17.81174
M204 S3000
M205 X10 Y10
G0 F6000 X54.611 Y66.168
M204 S1500
M205 X8 Y8
G1 F1200 X55.144 Y65.806 E17.84324
G1 X55.756 Y65.485 E17.87703
G1 X56.473 Y65.208 E17.91461
G1 X57.099 Y65.052 E17.94615
G1 X57.952 Y64.967 E17.98806
G1 X58.922 Y64.951 E18.03549
G1 X151.443 Y64.951 E22.55907
G1 X152.205 Y64.962 E22.59633
G1 X152.848 Y65.011 E22.62786
G1 X153.479 Y65.139 E22.65934
G1 X154.342 Y65.443 E22.70407
G1 X155.065 Y65.813 E22.74378
G1 X155.598 Y66.176 E22.77531
G1 X156.238 Y66.744 E22.81715
G1 X156.79 Y67.373 E22.85806
G1 X157.151 Y67.906 E22.88954
G1 X157.471 Y68.519 E22.92335
G1 X157.746 Y69.236 E22.96089
G1 X157.901 Y69.862 E22.99242
G1 X157.985 Y70.711 E23.03414
G1 X157.999 Y71.59 E23.07712
G1 X157.998 Y138.739 E26.36019
G1 X157.988 Y139.455 E26.3952
G1 X157.94 Y140.097 E26.42668
G1 X157.811 Y140.729 E26.45822
G1 X157.496 Y141.621 E26.50447
G1 X157.119 Y142.345 E26.54438
G1 X156.753 Y142.875 E26.57587
G1 X156.177 Y143.518 E26.61808
G1 X155.541 Y144.066 E26.65912
G1 X155.004 Y144.424 E26.69068
G1 X154.426 Y144.723 E26.72249
G1 X153.72 Y144.994 E26.75947
G1 X153.094 Y145.149 E26.791
G1 X152.248 Y145.233 E26.83257
G1 X151.278 Y145.249 E26.88
G1 X58.681 Y145.248 E31.40729
G1 X57.995 Y145.238 E31.44083
G1 X57.352 Y145.189 E31.47236
G1 X56.721 Y145.061 E31.50384
G1 X55.845 Y144.754 E31.54922
G1 X55.113 Y144.377 E31.58948
G1 X54.58 Y144.014 E31.62101
G1 X53.861 Y143.36 E31.66853
G1 X53.32 Y142.707 E31.70999
G1 X52.973 Y142.164 E31.7415
G1 X52.672 Y141.538 E31.77546
G1 X52.444 Y140.935 E31.80698
G1 X52.293 Y140.308 E31.83851
G1 X52.215 Y139.483 E31.87902
G1 X52.201 Y138.552 E31.92455
G1 X52.202 Y71.403 E35.20762
G1 X52.212 Y70.74 E35.24004
G1 X52.261 Y70.097 E35.27157
G1 X52.39 Y69.465 E35.30311
G1 X52.691 Y68.608 E35.34752
G1 X53.059 Y67.89 E35.38697
G1 X53.422 Y67.357 E35.4185
G1 X53.982 Y66.721 E35.45993
G1 X54.611 Y66.168 E35.50088
M204 S3000
M205 X10 Y10
G1 F1800 E29.50088
G1 F480 Z0.355
;MESH:player.stl
G0 F6000 X152.152 Y139.403 Z0.355
M204 S1500
M205 X8 Y8
;TYPE:WALL-OUTER
G1 F480 Z0.28
G1 F1800 E35.50088
G1 F1200 X152.152 Y70.797 E38.85519
G1 X58.047 Y70.796 E43.45621
G1 X58.047 Y139.404 E46.81062
G1 X152.152 Y139.403 E51.41164
M204 S3000
M205 X10 Y10
G0 F6000 X152.152 Y139.203
G0 X151.752 Y139.003
M204 S1500
M205 X8 Y8
;TYPE:WALL-INNER
G1 F1200 X151.752 Y71.197 E54.72683
G1 X58.447 Y71.196 E59.28874
G1 X58.447 Y139.004 E62.60404
G1 X151.752 Y139.003 E67.16594
M204 S3000
M205 X10 Y10
G0 F6000 X151.352 Y138.603
M204 S1500
M205 X8 Y8
G1 F1200 X151.352 Y71.597 E70.44202
G1 X58.847 Y71.596 E74.96482
G1 X58.847 Y138.604 E78.241
G1 X151.352 Y138.603 E82.76379
M204 S3000
M205 X10 Y10
G0 F6000 X150.972 Y138.223
M204 S1500
M205 X8 Y8
;TYPE:SKIN
G1 F1200 X150.972 Y71.977 E86.00272
G1 X59.227 Y71.976 E90.48835
G1 X59.227 Y138.224 E93.72737
G1 X150.972 Y138.223 E98.213
M204 S3000
M205 X10 Y10
G1 F1800 E92.213
G1 F480 Z0.355
G0 F6000 X150.771 Y72.706 Z0.355
M204 S1500
M205 X8 Y8
G1 F480 Z0.28
G1 F1800 E98.213
G1 F1200 X150.241 Y72.176 E98.24965
M204 S3000
M205 X10 Y10
G0 F6000 X149.675 Y72.176
M204 S1500
M205 X8 Y8
G1 F1200 X150.771 Y73.272 E98.32543
M204 S3000
M205 X10 Y10
G0 F6000 X150.771 Y73.838
M204 S1500
M205 X8 Y8
G1 F1200 X149.109 Y72.176 E98.44035
M204 S3000
M205 X10 Y10
G0 F6000 X148.544 Y72.176
M204 S1500
M205 X8 Y8
G1 F1200 X150.771 Y74.403 E98.59434
M204 S3000
M205 X10 Y10
G0 F6000 X150.771 Y74.969
M204 S1500
M205 X8 Y8
G1 F1200 X147.978 Y72.176 E98.78746
M204 S3000
M205 X10 Y10
G0 F6000 X147.412 Y72.176
M204 S1500
M205 X8 Y8
G1 F1200 X150.771 Y75.535 E99.01971
M204 S3000
M205 X10 Y10
G0 F6000 X150.771 Y76.1
M204 S1500
M205 X8 Y8
G1 F1200 X146.846 Y72.176 E99.29107
M204 S3000
M205 X10 Y10
G0 F6000 X146.281 Y72.176
M204 S1500
M205 X8 Y8
G1 F1200 X150.771 Y76.666 E99.60153
M204 S3000
M205 X10 Y10
G0 F6000 X150.771 Y77.232
M204 S1500
M205 X8 Y8
G1 F1200 X145.715 Y72.176 E99.95112
M204 S3000
M205 X10 Y10
G0 F6000 X145.149 Y72.176
M204 S1500
M205 X8 Y8
G1 F1200 X150.771 Y77.798 E100.33985
M204 S3000
M205 X10 Y10
G0 F6000 X150.771 Y78.363
M204 S1500
M205 X8 Y8
G1 F1200 X144.584 Y72.176 E100.76764
M204 S3000
M205 X10 Y10
G0 F6000 X144.018 Y72.176
M204 S1500
M205 X8 Y8
G1 F1200 X150.771 Y78.929 E101.23458
M204 S3000
M205 X10 Y10
G0 F6000 X150.771 Y79.495
M204 S1500
M205 X8 Y8
G1 F1200 X143.452 Y72.176 E101.74064
M204 S3000
M205 X10 Y10
G0 F6000 X142.887 Y72.176
M204 S1500
M205 X8 Y8
G1 F1200 X150.771 Y80.06 E102.28578
M204 S3000
M205 X10 Y10
G0 F6000 X150.771 Y80.626
M204 S1500
M205 X8 Y8
G1 F1200 X142.321 Y72.176 E102.87005
M204 S3000
M205 X10 Y10
G0 F6000 X141.755 Y72.176
M204 S1500
M205 X8 Y8
G1 F1200 X150.771 Y81.192 E103.49345
M204 S3000
M205 X10 Y10
G0 F6000 X150.771 Y81.757
M204 S1500
M205 X8 Y8
G1 F1200 X141.19 Y72.176 E104.15592
M204 S3000
M205 X10 Y10
G0 F6000 X140.624 Y72.176
M204 S1500
M205 X8 Y8
G1 F1200 X150.771 Y82.323 E104.85753
M204 S3000
M205 X10 Y10
G0 F6000 X150.771 Y82.889
M204 S1500
M205 X8 Y8
G1 F1200 X140.058 Y72.176 E105.59827
M204 S3000
M205 X10 Y10
G0 F6000 X139.493 Y72.176
M204 S1500
M205 X8 Y8
G1 F1200 X150.771 Y83.454 E106.37808
M204 S3000
M205 X10 Y10
G0 F6000 X150.771 Y84.02
M204 S1500
M205 X8 Y8
G1 F1200 X138.927 Y72.176 E107.19703
M204 S3000
M205 X10 Y10
G0 F6000 X138.361 Y72.176
M204 S1500
M205 X8 Y8
G1 F1200 X150.771 Y84.586 E108.05511
M204 S3000
M205 X10 Y10
G0 F6000 X150.771 Y85.151
M204 S1500
M205 X8 Y8
G1 F1200 X137.796 Y72.176 E108.95225
M204 S3000
M205 X10 Y10
G0 F6000 X137.23 Y72.176
M204 S1500
M205 X8 Y8
G1 F1200 X150.771 Y85.717 E109.88854
M204 S3000
M205 X10 Y10
G0 F6000 X150.771 Y86.283
M204 S1500
M205 X8 Y8
G1 F1200 X136.664 Y72.176 E110.86396
M204 S3000
M205 X10 Y10
G0 F6000 X136.098 Y72.176
M204 S1500
M205 X8 Y8
G1 F1200 X150.771 Y86.848 E111.87848
M204 S3000
M205 X10 Y10
G0 F6000 X150.771 Y87.414
M204 S1500
M205 X8 Y8
G1 F1200 X135.533 Y72.176 E112.9321
M204 S3000
M205 X10 Y10
G0 F6000 X134.967 Y72.176
M204 S1500
M205 X8 Y8
G1 F1200 X150.771 Y87.98 E114.02485
M204 S3000
M205 X10 Y10
G0 F6000 X150.771 Y88.546
M204 S1500
M205 X8 Y8
G1 F1200 X134.401 Y72.176 E115.15674
M204 S3000
M205 X10 Y10
G0 F6000 X133.836 Y72.176
M204 S1500
M205 X8 Y8
G1 F1200 X150.771 Y89.111 E116.3277
M204 S3000
M205 X10 Y10
G0 F6000 X150.771 Y89.677
M204 S1500
M205 X8 Y8
G1 F1200 X133.27 Y72.176 E117.5378
M204 S3000
M205 X10 Y10
G0 F6000 X132.704 Y72.176
M204 S1500
M205 X8 Y8
G1 F1200 X150.771 Y90.243 E118.78703
M204 S3000
M205 X10 Y10
G0 F6000 X150.771 Y90.808
M204 S1500
M205 X8 Y8
G1 F1200 X132.139 Y72.176 E120.07532
M204 S3000
M205 X10 Y10
G0 F6000 X131.573 Y72.176
M204 S1500
M205 X8 Y8
G1 F1200 X150.771 Y91.374 E121.40276
M204 S3000
M205 X10 Y10
G0 F6000 X150.771 Y91.94
M204 S1500
M205 X8 Y8
G1 F1200 X131.007 Y72.176 E122.76932
M204 S3000
M205 X10 Y10
G0 F6000 X130.442 Y72.176
M204 S1500
M205 X8 Y8
G1 F1200 X150.771 Y92.505 E124.17496
M204 S3000
M205 X10 Y10
G0 F6000 X150.771 Y93.071
M204 S1500
M205 X8 Y8
G1 F1200 X129.876 Y72.176 E125.61973
M204 S3000
M205 X10 Y10
G0 F6000 X129.31 Y72.176
M204 S1500
M205 X8 Y8
G1 F1200 X150.771 Y93.637 E127.10363
M204 S3000
M205 X10 Y10
G0 F6000 X150.771 Y94.202
M204 S1500
M205 X8 Y8
G1 F1200 X128.745 Y72.176 E128.62661
M204 S3000
M205 X10 Y10
G0 F6000 X128.179 Y72.176
M204 S1500
M205 X8 Y8
G1 F1200 X150.771 Y94.768 E130.18871
M204 S3000
M205 X10 Y10
G0 F6000 X150.771 Y95.334
M204 S1500
M205 X8 Y8
G1 F1200 X127.613 Y72.176 E131.78996
M204 S3000
M205 X10 Y10
G0 F6000 X127.047 Y72.176
M204 S1500
M205 X8 Y8
G1 F1200 X150.771 Y95.899 E133.4303
M204 S3000
M205 X10 Y10
G0 F6000 X150.771 Y96.465
M204 S1500
M205 X8 Y8
G1 F1200 X126.482 Y72.176 E135.10975
M204 S3000
M205 X10 Y10
G0 F6000 X125.916 Y72.176
M204 S1500
M205 X8 Y8
G1 F1200 X150.771 Y97.031 E136.82833
M204 S3000
M205 X10 Y10
G0 F6000 X150.771 Y97.596
M204 S1500
M205 X8 Y8
G1 F1200 X125.35 Y72.176 E138.58601
M204 S3000
M205 X10 Y10
G0 F6000 X124.785 Y72.176
M204 S1500
M205 X8 Y8
G1 F1200 X150.771 Y98.162 E140.3828
M204 S3000
M205 X10 Y10
G0 F6000 X150.771 Y98.728
M204 S1500
M205 X8 Y8
G1 F1200 X124.219 Y72.176 E142.21871
M204 S3000
M205 X10 Y10
G0 F6000 X123.653 Y72.176
M204 S1500
M205 X8 Y8
G1 F1200 X150.771 Y99.294 E144.09377
M204 S3000
M205 X10 Y10
G0 F6000 X150.771 Y99.859
M204 S1500
M205 X8 Y8
G1 F1200 X123.088 Y72.176 E146.00789
M204 S3000
M205 X10 Y10
G0 F6000 X122.522 Y72.176
M204 S1500
M205 X8 Y8
G1 F1200 X150.771 Y100.425 E147.96115
M204 S3000
M205 X10 Y10
G0 F6000 X150.771 Y100.991
M204 S1500
M205 X8 Y8
G1 F1200 X121.956 Y72.176 E149.95354
M204 S3000
M205 X10 Y10
G0 F6000 X121.391 Y72.176
M204 S1500
M205 X8 Y8
G1 F1200 X150.771 Y101.556 E151.985
M204 S3000
M205 X10 Y10
G0 F6000 X150.771 Y102.122
M204 S1500
M205 X8 Y8
G1 F1200 X120.825 Y72.176 E154.0556
M204 S3000
M205 X10 Y10
G0 F6000 X120.259 Y72.176
M204 S1500
M205 X8 Y8
G1 F1200 X150.771 Y102.688 E156.16533
M204 S3000
M205 X10 Y10
G0 F6000 X150.771 Y103.253
M204 S1500
M205 X8 Y8
G1 F1200 X119.694 Y72.176 E158.31412
M204 S3000
M205 X10 Y10
G0 F6000 X119.128 Y72.176
M204 S1500
M205 X8 Y8
G1 F1200 X150.771 Y103.819 E160.50206
M204 S3000
M205 X10 Y10
G0 F6000 X150.771 Y104.385
M204 S1500
M205 X8 Y8
G1 F1200 X118.562 Y72.176 E162.72912
M204 S3000
M205 X10 Y10
G0 F6000 X117.997 Y72.176
M204 S1500
M205 X8 Y8
G1 F1200 X150.771 Y104.95 E164.99526
M204 S3000
M205 X10 Y10
G0 F6000 X150.771 Y105.516
M204 S1500
M205 X8 Y8
G1 F1200 X117.431 Y72.176 E167.30053
M204 S3000
M205 X10 Y10
G0 F6000 X116.865 Y72.176
M204 S1500
M205 X8 Y8
G1 F1200 X150.771 Y106.082 E169.64494
M204 S3000
M205 X10 Y10
G0 F6000 X150.771 Y106.647
M204 S1500
M205 X8 Y8
G1 F1200 X116.299 Y72.176 E172.02844
M204 S3000
M205 X10 Y10
G0 F6000 X115.734 Y72.176
M204 S1500
M205 X8 Y8
G1 F1200 X150.771 Y107.213 E174.45105
M204 S3000
M205 X10 Y10
G0 F6000 X150.771 Y107.779
M204 S1500
M205 X8 Y8
G1 F1200 X115.168 Y72.176 E176.9128
M204 S3000
M205 X10 Y10
G0 F6000 X114.602 Y72.176
M204 S1500
M205 X8 Y8
G1 F1200 X150.771 Y108.345 E179.41368
M204 S3000
M205 X10 Y10
G0 F6000 X150.771 Y108.91
M204 S1500
M205 X8 Y8
G1 F1200 X114.037 Y72.176 E181.95362
M204 S3000
M205 X10 Y10
G0 F6000 X113.471 Y72.176
M204 S1500
M205 X8 Y8
G1 F1200 X150.771 Y109.476 E184.53271
M204 S3000
M205 X10 Y10
G0 F6000 X150.771 Y110.042
M204 S1500
M205 X8 Y8
G1 F1200 X112.905 Y72.176 E187.15092
M204 S3000
M205 X10 Y10
G0 F6000 X112.34 Y72.176
M204 S1500
M205 X8 Y8
G1 F1200 X150.771 Y110.607 E189.80821
M204 S3000
M205 X10 Y10
G0 F6000 X150.771 Y111.173
M204 S1500
M205 X8 Y8
G1 F1200 X111.774 Y72.176 E192.50463
M204 S3000
M205 X10 Y10
G0 F6000 X111.208 Y72.176
M204 S1500
M205 X8 Y8
G1 F1200 X150.771 Y111.739 E195.24018
M204 S3000
M205 X10 Y10
G0 F6000 X150.771 Y112.304
M204 S1500
M205 X8 Y8
G1 F1200 X110.643 Y72.176 E198.01481
M204 S3000
M205 X10 Y10
G0 F6000 X110.077 Y72.176
M204 S1500
M205 X8 Y8
G1 F1200 X150.771 Y112.87 E200.82856
M204 S3000
M205 X10 Y10
G0 F6000 X150.771 Y113.436
M204 S1500
M205 X8 Y8
G1 F1200 X109.511 Y72.176 E203.68146
M204 S3000
M205 X10 Y10
G0 F6000 X108.946 Y72.176
M204 S1500
M205 X8 Y8
G1 F1200 X150.771 Y114.001 E206.57342
M204 S3000
M205 X10 Y10
G0 F6000 X150.771 Y114.567
M204 S1500
M205 X8 Y8
G1 F1200 X108.38 Y72.176 E209.50451
M204 S3000
M205 X10 Y10
G0 F6000 X107.814 Y72.176
M204 S1500
M205 X8 Y8
G1 F1200 X150.771 Y115.133 E212.47474
M204 S3000
M205 X10 Y10
G0 F6000 X150.771 Y115.698
M204 S1500
M205 X8 Y8
G1 F1200 X107.249 Y72.176 E215.48404
M204 S3000
M205 X10 Y10
G0 F6000 X106.683 Y72.176
M204 S1500
M205 X8 Y8
