;FLAVOR:Marlin
;TIME:5811
;Filament used: 5.88251m
;Layer height: 0.28
;MINX:27.3
;MINY:27.3
;MINZ:0.28
;MAXX:182.9
;MAXY:182.9
;MAXZ:4.4
;TARGET_MACHINE.NAME:Anycubic i3 Mega S/Pro
;Generated with Cura_SteamEngine 5.6.0
M82 ;absolute extrusion mode
;Profil Homepage: https://github.com/NilsRo/Cura_Anycubic_MegaS_Profile

;Slicer Information - (Support for OctoPrint Slicer Estimator)
;Slicer info:material_guid;0ff92885-617b-4144-a03c-9989872454bc
;Slicer info:material_id;generic_pla_175
;Slicer info:material_brand;Generic
;Slicer info:material_name;PLA
;Slicer info:filament_cost;[0.0]
;Slicer info:material_bed_temperature;60
;Slicer info:material_bed_temperature_layer_0;60
;Slicer info:material_print_temperature;195.0
;Slicer info:material_print_temperature_layer_0;200.0
;Slicer info:material_flow;100
;Slicer info:layer_height;0.28
;Slicer info:machine_nozzle_size;0.4
;Slicer info:wall_thickness;1.2000000000000002
;Slicer info:speed_print;50.0
;Slicer info:speed_topbottom;35.0
;Slicer info:travel_speed;100.0
;Slicer info:support;0
;Slicer info:retraction_speed;30
;Slicer info:retraction_amount;6
;Slicer info:layer_height;0.28
;Slicer info:infill_pattern;grid
;Slicer info:infill_sparse_density;15
;Slicer info:cool_fan_enabled;True
;Slicer info:cool_fan_speed;60.0
;Slicer info:sliced_at;Sat 16-03-2024 13:00:47
G21                                        ; metric values 
G90                                        ; absolute positioning 
M82                                        ; set extruder to absolute mode 
M900 K0                                    ; disable lin. adv. if not set in GCODE
M107                                       ; start with the fan off 
M140 S60   ; Start heating the bed 
G4 S60                                     ; wait 1 minute 
M104 S200.0 ; start heating the hot end 
M190 S60   ; wait for bed 
M109 S200.0 ; wait for hotend 
M300 S1000 P500                            ; BEEP heating done 
G28 X0 Y10 Z0                              ; move X/Y to min endstops 
M420 S1                                    ; Enable leveling 
M420 Z2.0                                  ; Set leveling fading height to 2 mm 
G0 Z0.15                                   ; lift nozzle a bit 
G92 E0                                     ; zero the extruded length 
G1 X50 E20 F500                            ; Extrude 20mm of filament in a 5cm line. 
G92 E0                                     ; zero the extruded length again 
G1 E-2 F500                                ; Retract a little 
G1 X50 F500                                ; wipe away from the filament line
G1 X100 F9000                              ; Quickly wipe away from the filament line
G92 E0
G92 E0
G1 F1800 E-6
;LAYER_COUNT:15
;LAYER:0
M106 S76.5
M204 S3000
M205 X10 Y10
G1 F480 Z0.48
G0 F6000 X28.918 Y29.221 Z0.48
M204 S1500
M205 X8 Y8
;TYPE:SKIRT
G1 F480 Z0.28
G1 F1800 E0
G1 F1200 X29.496 Y28.679 E0.03874
G1 X30.141 Y28.216 E0.07756
G1 X30.794 Y27.862 E0.11388
G1 X31.393 Y27.624 E0.14539
G1 X32.225 Y27.409 E0.1874
G1 X33.174 Y27.304 E0.23409
G1 X176.205 Y27.3 E7.22722
G1 X177.025 Y27.313 E7.26731
G1 X177.668 Y27.362 E7.29884
G1 X178.497 Y27.53 E7.3402
G1 X179.197 Y27.772 E7.37641
G1 X179.778 Y28.051 E7.40792
G1 X180.448 Y28.479 E7.44679
G1 X181.054 Y28.99 E7.48555
G1 X181.494 Y29.462 E7.5171
G1 X181.961 Y30.102 E7.55583
G1 X182.319 Y30.754 E7.5922
G1 X182.578 Y31.398 E7.62614
G1 X182.792 Y32.23 E7.66814
G1 X182.896 Y33.176 E7.71467
G1 X182.9 Y176.238 E14.70932
G1 X182.889 Y177.015 E14.74731
G1 X182.841 Y177.658 E14.77884
G1 X182.687 Y178.436 E14.81761
G1 X182.432 Y179.189 E14.85648
G1 X182.107 Y179.855 E14.89271
G1 X181.759 Y180.398 E14.92425
G1 X181.287 Y180.972 E14.96058
G1 X180.671 Y181.549 E15.00185
G1 X180.149 Y181.928 E15.03339
G1 X179.41 Y182.335 E15.07464
G1 X178.765 Y182.589 E15.10853
G1 X177.981 Y182.79 E15.1481
G1 X177.026 Y182.896 E15.19508
G1 X33.929 Y182.9 E22.19143
G1 X33.182 Y182.889 E22.22796
G1 X32.539 Y182.84 E22.25949
G1 X31.761 Y182.686 E22.29827
G1 X31.01 Y182.432 E22.33703
G1 X30.429 Y182.154 E22.36852
G1 X29.718 Y181.696 E22.40987
G1 X29.187 Y181.249 E22.4438
G1 X28.649 Y180.669 E22.48248
G1 X28.27 Y180.147 E22.51402
G1 X27.863 Y179.409 E22.55523
G1 X27.625 Y178.81 E22.58674
G1 X27.41 Y177.978 E22.62876
G1 X27.304 Y177.02 E22.67588
G1 X27.3 Y33.893 E29.6737
G1 X27.311 Y33.179 E29.70862
G1 X27.36 Y32.536 E29.74015
G1 X27.515 Y31.758 E29.77893
G1 X27.769 Y31.007 E29.81769
G1 X28.048 Y30.426 E29.84921
G1 X28.505 Y29.715 E29.89053
G1 X28.918 Y29.221 E29.92201
M204 S3000
M205 X10 Y10
G0 F6000 X29.225 Y29.478
M204 S1500
M205 X8 Y8
G1 F1200 X29.73 Y29.003 E29.95591
G1 X30.333 Y28.567 E29.99229
G1 X30.942 Y28.234 E30.02623
G1 X31.541 Y27.996 E30.05774
G1 X32.269 Y27.807 E30.09451
G1 X33.218 Y27.702 E30.1412
G1 X176.199 Y27.7 E37.13188
G1 X176.995 Y27.712 E37.1708
G1 X177.638 Y27.761 E37.20233
G1 X178.368 Y27.909 E37.23875
G1 X179.024 Y28.133 E37.27264
G1 X179.605 Y28.412 E37.30415
G1 X180.231 Y28.815 E37.34055
G1 X180.761 Y29.263 E37.37448
G1 X181.201 Y29.735 E37.40603
G1 X181.61 Y30.295 E37.43994
G1 X181.968 Y30.947 E37.4763
G1 X182.206 Y31.546 E37.50782
G1 X182.394 Y32.274 E37.54458
G1 X182.498 Y33.22 E37.59111
G1 X182.5 Y176.233 E44.58336
G1 X182.49 Y176.985 E44.62013
G1 X182.442 Y177.628 E44.65165
G1 X182.308 Y178.309 E44.68559
G1 X182.072 Y179.015 E44.72198
G1 X181.77 Y179.639 E44.75588
G1 X181.422 Y180.182 E44.78741
G1 X180.979 Y180.717 E44.82137
G1 X180.436 Y181.225 E44.85773
G1 X179.914 Y181.604 E44.88927
G1 X179.263 Y181.963 E44.92561
G1 X178.618 Y182.217 E44.95951
G1 X177.937 Y182.392 E44.99388
G1 X176.982 Y182.498 E45.04086
G1 X33.935 Y182.5 E52.03477
G1 X33.212 Y182.49 E52.07013
G1 X32.569 Y182.441 E52.10166
G1 X31.888 Y182.307 E52.13559
G1 X31.183 Y182.071 E52.17194
G1 X30.602 Y181.793 E52.20343
G1 X29.976 Y181.39 E52.23983
G1 X29.445 Y180.943 E52.27377
G1 X28.973 Y180.434 E52.30771
G1 X28.594 Y179.912 E52.33925
G1 X28.235 Y179.261 E52.37559
G1 X27.997 Y178.662 E52.40711
G1 X27.808 Y177.934 E52.44388
G1 X27.702 Y176.976 E52.49101
G1 X27.7 Y33.899 E59.48638
G1 X27.71 Y33.209 E59.52012
G1 X27.759 Y32.566 E59.55165
G1 X27.894 Y31.885 E59.58559
G1 X28.13 Y31.18 E59.62194
G1 X28.409 Y30.599 E59.65346
G1 X28.812 Y29.972 E59.6899
G1 X29.225 Y29.478 E59.72138
M204 S3000
M205 X10 Y10
G0 F6000 X29.532 Y29.735
M204 S1500
M205 X8 Y8
G1 F1200 X30.003 Y29.295 E59.75289
G1 X30.526 Y28.917 E59.78444
G1 X31.09 Y28.606 E59.81593
G1 X31.689 Y28.368 E59.84745
G1 X32.313 Y28.205 E59.87898
G1 X33.262 Y28.1 E59.92566
G1 X176.193 Y28.1 E66.9139
G1 X176.965 Y28.111 E66.95165
G1 X177.608 Y28.16 E66.98318
G1 X178.24 Y28.288 E67.01471
G1 X178.851 Y28.494 E67.04623
G1 X179.432 Y28.773 E67.07774
G1 X179.974 Y29.122 E67.10926
G1 X180.468 Y29.536 E67.14077
G1 X180.908 Y30.008 E67.17232
G1 X181.286 Y30.53 E67.20383
G1 X181.596 Y31.095 E67.23534
G1 X181.834 Y31.694 E67.26686
G1 X181.996 Y32.318 E67.29838
G1 X182.1 Y33.264 E67.34491
G1 X182.1 Y176.228 E74.33476
G1 X182.091 Y176.955 E74.37031
G1 X182.043 Y177.598 E74.40183
G1 X181.916 Y178.23 E74.43335
G1 X181.711 Y178.842 E74.46491
G1 X181.433 Y179.423 E74.4964
G1 X181.085 Y179.966 E74.52793
G1 X180.672 Y180.461 E74.55945
G1 X180.201 Y180.901 E74.59096
G1 X179.679 Y181.28 E74.6225
G1 X179.115 Y181.591 E74.65399
G1 X178.516 Y181.83 E74.68552
G1 X177.893 Y181.994 E74.71702
G1 X176.938 Y182.1 E74.764
G1 X33.94 Y182.1 E81.75552
G1 X33.242 Y182.091 E81.78965
G1 X32.599 Y182.042 E81.82118
G1 X31.967 Y181.915 E81.85269
G1 X31.356 Y181.71 E81.8842
G1 X30.775 Y181.432 E81.91569
G1 X30.232 Y181.083 E81.94725
G1 X29.737 Y180.67 E81.97877
G1 X29.297 Y180.199 E82.01029
G1 X28.918 Y179.677 E82.04183
G1 X28.607 Y179.113 E82.07331
G1 X28.369 Y178.514 E82.10483
G1 X28.206 Y177.89 E82.13636
G1 X28.1 Y176.932 E82.18349
G1 X28.1 Y33.904 E89.17647
G1 X28.109 Y33.239 E89.20898
G1 X28.158 Y32.596 E89.24051
G1 X28.286 Y31.964 E89.27204
G1 X28.491 Y31.353 E89.30355
G1 X28.77 Y30.772 E89.33506
G1 X29.119 Y30.229 E89.36662
G1 X29.532 Y29.735 E89.3981
M204 S3000
M205 X10 Y10
G1 F1800 E83.3981
G1 F480 Z0.48
;MESH:species.stl
G0 F6000 X67.349 Y67.495 Z0.48
M204 S1500
M205 X8 Y8
;TYPE:WALL-OUTER
G1 F480 Z0.28
G1 F1800 E89.3981
G1 F1200 X36.052 Y67.495 E90.92829
G1 X35.902 Y67.335 E90.93901
G1 X35.9 Y36.1 E92.46617
G1 X36.065 Y35.902 E92.47877
G1 X67.38 Y35.9 E94.00983
G1 X67.495 Y36.052 E94.01915
G1 X67.5 Y67.318 E95.54782
G1 X67.349 Y67.495 E95.5592
M204 S3000
M205 X10 Y10
G0 F6000 X67.149 Y67.495
G1 F1800 E89.5592
G1 F480 Z0.48
G0 F6000 X67.349 Y103.095 Z0.48
M204 S1500
M205 X8 Y8
G1 F480 Z0.28
G1 F1800 E95.5592
G1 F1200 X36.052 Y103.095 E97.08938
G1 X35.902 Y102.935 E97.10011
G1 X35.9 Y71.62 E98.63117
G1 X36.052 Y71.505 E98.64049
G1 X67.349 Y71.505 E100.17067
G1 X67.495 Y71.651 E100.18077
G1 X67.5 Y102.918 E101.70949
G1 X67.349 Y103.095 E101.72086
M204 S3000
M205 X10 Y10
G0 F6000 X67.149 Y103.095
G1 F1800 E95.72086
G1 F480 Z0.48
G0 F6000 X102.949 Y103.095 Z0.48
M204 S1500
M205 X8 Y8
G1 F480 Z0.28
G1 F1800 E101.72086
G1 F1200 X71.631 Y103.1 E103.25208
G1 X71.5 Y102.969 E103.26113
G1 X71.505 Y71.651 E104.79235
G1 X71.682 Y71.5 E104.80372
G1 X102.949 Y71.505 E106.33244
G1 X103.095 Y71.651 E106.34254
G1 X103.1 Y102.918 E107.87125
G1 X102.949 Y103.095 E107.88263
M204 S3000
M205 X10 Y10
G0 F6000 X102.749 Y103.095
G1 F1800 E101.88263
G1 F480 Z0.48
G0 F6000 X102.949 Y138.695 Z0.48
M204 S1500
M205 X8 Y8
G1 F480 Z0.28
G1 F1800 E107.88263
G1 F1200 X71.631 Y138.7 E109.41384
G1 X71.5 Y138.569 E109.4229
G1 X71.505 Y107.251 E110.95411
G1 X71.682 Y107.1 E110.96549
G1 X102.949 Y107.105 E112.4942
G1 X103.095 Y107.251 E112.5043
G1 X103.1 Y138.518 E114.03302
G1 X102.949 Y138.695 E114.04439
M204 S3000
M205 X10 Y10
G0 F6000 X102.749 Y138.695
G1 F1800 E108.04439
G1 F480 Z0.48
G0 F6000 X138.549 Y138.695 Z0.48
M204 S1500
M205 X8 Y8
G1 F480 Z0.28
G1 F1800 E114.04439
G1 F1200 X107.231 Y138.7 E115.57561
G1 X107.1 Y138.569 E115.58466
G1 X107.105 Y107.251 E117.11588
G1 X107.282 Y107.1 E117.12725
G1 X138.549 Y107.105 E118.65597
G1 X138.695 Y107.251 E118.66607
G1 X138.7 Y138.518 E120.19478
G1 X138.549 Y138.695 E120.20616
M204 S3000
M205 X10 Y10
G0 F6000 X138.349 Y138.695
G1 F1800 E114.20616
G1 F480 Z0.48
G0 F6000 X174.148 Y138.695 Z0.48
M204 S1500
M205 X8 Y8
G1 F480 Z0.28
G1 F1800 E120.20616
G1 F1200 X142.831 Y138.7 E121.73732
G1 X142.7 Y138.569 E121.74638
G1 X142.705 Y107.251 E123.27759
G1 X142.882 Y107.1 E123.28897
G1 X174.148 Y107.105 E124.81764
G1 X174.3 Y107.22 E124.82696
G1 X174.298 Y138.535 E126.35802
G1 X174.148 Y138.695 E126.36874
M204 S3000
M205 X10 Y10
G0 F6000 X173.948 Y138.695
G1 F1800 E120.36874
G1 F480 Z0.48
G0 F6000 X174.148 Y103.095 Z0.48
M204 S1500
M205 X8 Y8
G1 F480 Z0.28
G1 F1800 E126.36874
G1 F1200 X142.831 Y103.1 E127.89991
G1 X142.7 Y102.969 E127.90897
G1 X142.705 Y71.651 E129.44018
G1 X142.882 Y71.5 E129.45155
G1 X174.148 Y71.505 E130.98022
G1 X174.3 Y71.62 E130.98954
G1 X174.298 Y102.935 E132.52061
G1 X174.148 Y103.095 E132.53133
M204 S3000
M205 X10 Y10
G0 F6000 X173.948 Y103.095
G1 F1800 E126.53133
G1 F480 Z0.48
G0 F6000 X138.549 Y103.095 Z0.48
M204 S1500
M205 X8 Y8
G1 F480 Z0.28
G1 F1800 E132.53133
G1 F1200 X107.231 Y103.1 E134.06254
G1 X107.1 Y102.969 E134.0716
G1 X107.105 Y71.651 E135.60281
G1 X107.282 Y71.5 E135.61419
G1 X138.549 Y71.505 E137.14291
G1 X138.695 Y71.651 E137.153
G1 X138.7 Y102.918 E138.68172
G1 X138.549 Y103.095 E138.6931
M204 S3000
M205 X10 Y10
G0 F6000 X138.349 Y103.095
G1 F1800 E132.6931
G1 F480 Z0.48
G0 F6000 X138.549 Y67.495 Z0.48
M204 S1500
M205 X8 Y8
G1 F480 Z0.28
G1 F1800 E138.6931
G1 F1200 X107.231 Y67.5 E140.22431
G1 X107.1 Y67.369 E140.23337
G1 X107.105 Y36.052 E141.76453
G1 X107.265 Y35.902 E141.77525
G1 X138.58 Y35.9 E143.30632
G1 X138.695 Y36.052 E143.31564
G1 X138.7 Y67.318 E144.84431
G1 X138.549 Y67.495 E144.85568
M204 S3000
M205 X10 Y10
G0 F6000 X138.349 Y67.495
G1 F1800 E138.85568
G1 F480 Z0.48
G0 F6000 X174.148 Y67.495 Z0.48
M204 S1500
M205 X8 Y8
G1 F480 Z0.28
G1 F1800 E144.85568
G1 F1200 X142.831 Y67.5 E146.38684
G1 X142.7 Y67.369 E146.3959
G1 X142.705 Y36.052 E147.92707
G1 X142.865 Y35.902 E147.93779
G1 X174.1 Y35.9 E149.46494
G1 X174.242 Y35.958 E149.47244
G1 X174.3 Y36.1 E149.47994
G1 X174.298 Y67.335 E151.0071
G1 X174.148 Y67.495 E151.01782
M204 S3000
M205 X10 Y10
G0 F6000 X173.948 Y67.495
G1 F1800 E145.01782
G1 F480 Z0.48
G0 F6000 X102.949 Y67.495 Z0.48
M204 S1500
M205 X8 Y8
G1 F480 Z0.28
G1 F1800 E151.01782
G1 F1200 X71.631 Y67.5 E152.54903
G1 X71.5 Y67.369 E152.55809
G1 X71.505 Y36.052 E154.08925
G1 X71.665 Y35.902 E154.09997
G1 X102.98 Y35.9 E155.63104
G1 X103.095 Y36.052 E155.64036
G1 X103.1 Y67.318 E157.16903
G1 X102.949 Y67.495 E157.1804
M204 S3000
M205 X10 Y10
G0 F6000 X102.749 Y67.495
G1 F1800 E151.1804
G1 F480 Z0.48
G0 F6000 X67.349 Y138.695 Z0.48
M204 S1500
M205 X8 Y8
G1 F480 Z0.28
G1 F1800 E157.1804
G1 F1200 X36.052 Y138.695 E158.71059
G1 X35.902 Y138.535 E158.72131
G1 X35.9 Y107.22 E160.25238
G1 X36.052 Y107.105 E160.2617
G1 X67.349 Y107.105 E161.79188
G1 X67.495 Y107.251 E161.80198
G1 X67.5 Y138.518 E163.3307
G1 X67.349 Y138.695 E163.34207
M204 S3000
M205 X10 Y10
G0 F6000 X67.149 Y138.695
G1 F1800 E157.34207
G1 F480 Z0.48
G0 F6000 X67.335 Y174.298 Z0.48
M204 S1500
M205 X8 Y8
G1 F480 Z0.28
G1 F1800 E163.34207
G1 F1200 X36.1 Y174.3 E164.86923
G1 X35.902 Y174.135 E164.88183
G1 X35.9 Y142.82 E166.41289
G1 X36.052 Y142.705 E166.42221
G1 X67.349 Y142.705 E167.9524
G1 X67.495 Y142.851 E167.96249
G1 X67.495 Y174.148 E169.49268
G1 X67.335 Y174.298 E169.5034
M204 S3000
M205 X10 Y10
G0 F6000 X67.135 Y174.298
G1 F1800 E163.5034
G1 F480 Z0.48
G0 F6000 X102.935 Y174.298 Z0.48
M204 S1500
M205 X8 Y8
G1 F480 Z0.28
G1 F1800 E169.5034
G1 F1200 X71.617 Y174.3 E171.03461
G1 X71.5 Y174.118 E171.04519
G1 X71.505 Y142.851 E172.57391
G1 X71.682 Y142.7 E172.58528
G1 X102.949 Y142.705 E174.114
G1 X103.095 Y142.851 E174.1241
G1 X103.095 Y174.148 E175.65428
G1 X102.935 Y174.298 E175.66501
M204 S3000
M205 X10 Y10
G0 F6000 X102.735 Y174.298
G1 F1800 E169.66501
G1 F480 Z0.48
G0 F6000 X138.535 Y174.298 Z0.48
M204 S1500
M205 X8 Y8
G1 F480 Z0.28
G1 F1800 E175.66501
G1 F1200 X107.22 Y174.3 E177.19607
G1 X107.105 Y174.148 E177.20539
G1 X107.105 Y142.851 E178.73558
G1 X107.282 Y142.7 E178.74695
G1 X138.549 Y142.705 E180.27567
G1 X138.695 Y142.851 E180.28577
G1 X138.695 Y174.148 E181.81595
G1 X138.535 Y174.298 E181.82667
M204 S3000
M205 X10 Y10
G0 F6000 X138.335 Y174.298
G1 F1800 E175.82667
G1 F480 Z0.48
G0 F6000 X174.135 Y174.298 Z0.48
M204 S1500
M205 X8 Y8
G1 F480 Z0.28
G1 F1800 E181.82667
G1 F1200 X142.82 Y174.3 E183.35774
G1 X142.705 Y174.148 E183.36706
G1 X142.705 Y142.851 E184.89724
G1 X142.882 Y142.7 E184.90862
G1 X174.148 Y142.705 E186.43729
G1 X174.3 Y142.82 E186.44661
G1 X174.298 Y174.135 E187.97767
G1 X174.135 Y174.298 E187.98894
M204 S3000
M205 X10 Y10
G0 F6000 X173.935 Y174.298
G1 F1800 E181.98894
G1 F480 Z0.48
G0 F6000 X176.7 Y176.7 Z0.48
M204 S1500
M205 X8 Y8
G1 F480 Z0.28
G1 F1800 E187.98894
G1 F1200 X176.7 Y33.5 E194.99034
G1 X33.5 Y33.5 E201.99173
G1 X33.5 Y176.7 E208.99312
G1 X176.7 Y176.7 E215.99451
M204 S3000
M205 X10 Y10
G0 F6000 X176.7 Y176.5
G0 X176.3 Y176.3
M204 S1500
M205 X8 Y8
;TYPE:WALL-INNER
G1 F1200 X176.3 Y33.9 E222.95679
G1 X33.9 Y33.9 E229.91906
G1 X33.9 Y176.3 E236.88134
G1 X176.3 Y176.3 E243.84362
M204 S3000
M205 X10 Y10
G0 F6000 X175.9 Y175.9
M204 S1500
M205 X8 Y8
G1 F1200 X175.9 Y34.3 E250.76678
G1 X34.3 Y34.3 E257.68995
G1 X34.3 Y175.9 E264.61311
G1 X175.9 Y175.9 E271.53627
M204 S3000
M205 X10 Y10
G1 F1800 E265.53627
G1 F480 Z0.48
G0 F6000 X142.605 Y174.623 Z0.48
M204 S1500
M205 X8 Y8
G1 F480 Z0.28
G1 F1800 E271.53627
G1 F1200 X142.406 Y174.442 E271.54943
G1 X142.304 Y174.216 E271.56155
G1 X142.3 Y142.799 E273.0976
G1 X142.475 Y142.475 E273.11561
G1 X142.847 Y142.302 E273.13566
G1 X174.216 Y142.304 E274.66937
G1 X174.442 Y142.406 E274.68149
G1 X174.623 Y142.605 E274.69465
G1 X174.7 Y142.9 E274.70955
G1 X174.7 Y174.189 E276.23935
G1 X174.525 Y174.525 E276.25787
G1 X174.189 Y174.7 E276.27639
G1 X142.9 Y174.7 E277.80619
G1 X142.605 Y174.623 E277.82109
M204 S3000
M205 X10 Y10
